!!!!SEGMENT: pl-sa--231-a-vi-35--001-009_anonim--litania-regina-angelorum.krn
!!!cenid: 17xx:1404
!!!COM: Anonim
!!!COM-rismID: pe30004985
!!!CDT:
!!!CNT:
!!!OPR: Litania
!!!OTL: Regina angelorum
!!!OMV: 009
!!!PDT:
!!!AGN: Sacred; Mass
!!!YEC: Copyright 2022 Narodowy Instytut Fryderyka Chopina (https://polishscores.org)
!!!YEM: License CC-BY-4.0 (https://creativecommons.org/licenses/by/4.0)
!!!SMS-siglum: PL-SA
!!!SMS-shelfmark: 231/A VI 35
!!!SMS-shelfwork: 001-009 M
!!!SMS-variant:
!!!SMS-altvar:
!!!NIFC-rismSourceID: 1001039070
!!!NIFC-rismChildID: 1001039070
!!!NIFC-islandoraID: none
!!!URL-pdf-islandora:
!!!URL-scan: https://bc.bdsandomierz.pl/dlibra/publication/1585/edition/1553/content @EN{Scan in the Sandomierz Diocese Digital Library} @PL{Skany w portalu Cyfrowa Biblioteka Diecezjalna w Sandomierzu}
!!!IIIF:
!!!ONB-nifc: UWAGA: części Litanii: 1. Sinfonia, 2. Kyrie, 3. Pater de caelis, 4. Sancta Maria, 5. Mater amabilis, 6. Speculum iustitiae, 7. Rosa mystica, 8. Salus infirmorum, 9. Regina angelorum, 10. Agnus Dei. Uwaga: wpisać oba teksty.
!!!AIN: 1 bass 2 cor 2 oboe 1 organ 1 soprn 1 tenor 2 violn
!!!key: G
**kern	**dynam	**kern	**dynam	**kern	**dynam	**kern	**text	**kern	**kern	**kern	**dynam	**kern	**dynam	**kern	**kern
*part10	*	*part9	*	*part8	*	*part7	*	*part6	*part5	*part4	*	*part3	*	*part2	*part1
*staff10	*	*staff9	*	*staff8	*	*staff7	*	*staff6	*staff5	*staff4	*	*staff3	*	*staff2	*staff1
*I"Fundamento	*	*I"Violino Secundo	*	*I"Violino Primo	*	*I"Basso	*	*I"Tenore	*I"Canto	*I"Cornu Secundo ex G	*	*I"Cornu Primo ex G	*	*I"[Oboe Secundo]	*I"Oboa Prima
*I'bc	*	*I'vl II	*	*I'vl I	*	*I'B	*	*I'T	*I'C	*I'cor II	*	*I'cor I	*	*I'ob II	*I'ob I
*ICklav	*	*ICstr	*	*ICstr	*	*ICvox	*	*ICvox	*ICvox	*ICbras	*	*ICbras	*	*ICww	*ICww
*Iorgan	*	*Ivioln	*	*Ivioln	*	*Ibass	*	*Itenor	*Isoprn	*Icor	*	*Icor	*	*Ioboe	*Ioboe
*clefF4	*	*clefG2	*	*clefG2	*	*clefF4	*	*clefC4	*clefC1	*clefG2	*	*clefG2	*	*clefG2	*clefG2
*G:	*	*G:	*	*G:	*	*G:	*	*G:	*G:	*G:	*	*G:	*	*G:	*G:
*	*	*	*	*	*	*	*	*	*	*ITrd3c5	*	*ITrd3c5	*	*	*
*k[f#]	*	*k[f#]	*	*k[f#]	*	*k[f#]	*	*k[f#]	*k[f#]	*k[f#]	*	*k[f#]	*	*k[f#]	*k[f#]
*M3/8	*	*M3/8	*	*M3/8	*	*M3/8	*	*M3/8	*M3/8	*M3/8	*	*M3/8	*	*M3/8	*M3/8
=1	=1	=1	=1	=1	=1	=1	=1	=1	=1	=1	=1	=1	=1	=1	=1
!LO:TX:a:t=Solo.	!	!	!	!	!	!LO:TX:a:B:t=Allo	!	!	!	!	!	!	!	!	!
!LO:TX:a:B:t=Allo	!	!LO:TX:a:B:t=Allo	!	!LO:TX:a:B:t=Allo&colon;	!	!LO:TX:a:t=Solo	!	!LO:TX:a:t=Regina Tacet	!LO:TX:a:t=Regina Tacet	!LO:TX:a:B:t=Allo	!	!LO:TX:a:B:t=Allo&colon;	!	!LO:TX:t=P:problem=brak partii oboju II, wybrakowane źródło	!LO:TX:a:B:t=Allo&colon;
8GG/L	.	4.d/	.	4.g/	.	4.r	.	4.ryy	4.ryy	8r	.	8r	.	4.ryy	4.g/
8G\	.	.	.	.	.	.	.	.	.	8B/L	.	8g\L	.	.	.
8G\J	.	.	.	.	.	.	.	.	.	8B/J	.	8g\J	.	.	.
=2	=2	=2	=2	=2	=2	=2	=2	=2	=2	=2	=2	=2	=2	=2	=2
8GG/L	.	4.g/	.	4.b\	.	4.r	.	4.ryy	4.ryy	8r	.	8r	.	4.ryy	4.b/
8G\	.	.	.	.	.	.	.	.	.	8g\L	.	8b\L	.	.	.
8G\J	.	.	.	.	.	.	.	.	.	8g\J	.	8b\J	.	.	.
=3	=3	=3	=3	=3	=3	=3	=3	=3	=3	=3	=3	=3	=3	=3	=3
8GG/L	.	4.b\	.	4.dd\	.	4.r	.	4.ryy	4.ryy	8r	.	8r	.	4.ryy	4.dd\
8G\	.	.	.	.	.	.	.	.	.	8b\L	.	8dd\L	.	.	.
8G\J	.	.	.	.	.	.	.	.	.	8b\J	.	8dd\J	.	.	.
=4	=4	=4	=4	=4	=4	=4	=4	=4	=4	=4	=4	=4	=4	=4	=4
8GG/L	.	4.g/	.	4.b\	.	4.r	.	4.ryy	4.ryy	8r	.	8r	.	4.ryy	4.b/
8G\	.	.	.	.	.	.	.	.	.	8g\L	.	8b\L	.	.	.
8G\J	.	.	.	.	.	.	.	.	.	8g\J	.	8b\J	.	.	.
=5	=5	=5	=5	=5	=5	=5	=5	=5	=5	=5	=5	=5	=5	=5	=5
8G\L	.	8g/L	.	8g/L	.	4.r	.	4.ryy	4.ryy	4.r	.	4.r	.	4.ryy	8gg\L
8D\	.	8d/	.	8d/	.	.	.	.	.	.	.	.	.	.	8dd\
8C\J	.	8c/J	.	8c/J	.	.	.	.	.	.	.	.	.	.	8cc\J
=6	=6	=6	=6	=6	=6	=6	=6	=6	=6	=6	=6	=6	=6	=6	=6
16BB/LL	.	16B/LL	.	16B/LL	.	4.r	.	4.ryy	4.ryy	4.r	.	4.r	.	4.ryy	16b/LL
16AA/J	.	16A/J	.	16A/J	.	.	.	.	.	.	.	.	.	.	16a/J
8GG/J	.	8G/J	.	8G/J	.	.	.	.	.	.	.	.	.	.	8g/J
8r	.	8r	.	8r	.	.	.	.	.	.	.	.	.	.	8r
=7	=7	=7	=7	=7	=7	=7	=7	=7	=7	=7	=7	=7	=7	=7	=7
4D\	.	(16a\LL	.	(16dd\LL	.	4.r	.	4.ryy	4.ryy	4d/	.	4a\	.	4.ryy	(16dd\LL
.	.	16dd\)	.	16ff#\)	.	.	.	.	.	.	.	.	.	.	16ff#\)
.	.	(16dd\	.	(16ff#\	.	.	.	.	.	.	.	.	.	.	(16ff#\
.	.	16ff#\)	.	16aa\)	.	.	.	.	.	.	.	.	.	.	16aa\)
8r	.	(16ff#\	.	(16aa\	.	.	.	.	.	8r	.	8r	.	.	(16aa\
.	.	16aa\JJ)	.	16ccc\JJ)	.	.	.	.	.	.	.	.	.	.	16ccc\JJ)
=8	=8	=8	=8	=8	=8	=8	=8	=8	=8	=8	=8	=8	=8	=8	=8
8D\L	.	16aa\LL	.	16ccc\LL	.	4.r	.	4.ryy	4.ryy	8d/L	.	8a\L	.	4.ryy	(16ccc\LL
.	.	16dd\JJ	.	16dd\JJ	.	.	.	.	.	.	.	.	.	.	16dd\JJ)
8F#\	.	4ddT\	.	4ddT\	.	.	.	.	.	8d/	.	8a\	.	.	4ddT\
8A\J	.	.	.	.	.	.	.	.	.	8d/J	.	8a\J	.	.	.
=9	=9	=9	=9	=9	=9	=9	=9	=9	=9	=9	=9	=9	=9	=9	=9
4D\	.	(16b\LL	.	(16dd\LL	.	4.r	.	4.ryy	4.ryy	4g\	.	4b\	.	4.ryy	(16dd\LL
.	.	16dd\)	.	16gg\)	.	.	.	.	.	.	.	.	.	.	16gg\)
.	.	(16dd\	.	(16gg\	.	.	.	.	.	.	.	.	.	.	(16gg\
.	.	16gg\)	.	16bb\)	.	.	.	.	.	.	.	.	.	.	16bb\)
8r	.	(16gg\	.	(16bb\	.	.	.	.	.	8r	.	8r	.	.	(16bb\
.	.	16bb\JJ)	.	16ddd\JJ)	.	.	.	.	.	.	.	.	.	.	16ddd\JJ)
=10	=10	=10	=10	=10	=10	=10	=10	=10	=10	=10	=10	=10	=10	=10	=10
8D\L	.	16bb\LL	.	16ddd\LL	.	4.r	.	4.ryy	4.ryy	8g\L	.	8b\L	.	4.ryy	16ddd\LL
.	.	16dd\JJ	.	16dd\JJ	.	.	.	.	.	.	.	.	.	.	16dd\JJ
8G\	.	4ddT\	.	4ddT\	.	.	.	.	.	8g\	.	8b\	.	.	4ddT\
8B\J	.	.	.	.	.	.	.	.	.	8g\J	.	8b\J	.	.	.
=11	=11	=11	=11	=11	=11	=11	=11	=11	=11	=11	=11	=11	=11	=11	=11
4D\	.	(16a\LL	.	(16dd\LL	.	4.r	.	4.ryy	4.ryy	4d/	.	4a\	.	4.ryy	16dd\LL
.	.	16dd\)	.	16ff#\)	.	.	.	.	.	.	.	.	.	.	16ff#\
.	.	(16dd\	.	(16ff#\	.	.	.	.	.	.	.	.	.	.	16ff#\
.	.	16ff#\)	.	16aa\)	.	.	.	.	.	.	.	.	.	.	16aa\
8r	.	(16ff#\	.	(16aa\	.	.	.	.	.	8r	.	8r	.	.	16aa\
.	.	16aa\JJ)	.	16ccc\JJ)	.	.	.	.	.	.	.	.	.	.	16ccc\JJ
=12	=12	=12	=12	=12	=12	=12	=12	=12	=12	=12	=12	=12	=12	=12	=12
!	!	!	!	!LO:N:vis=16.	!	!	!	!	!	!	!	!	!	!	!
8D\L	.	16aa\LL	.	16ccc\LL	.	4.r	.	4.ryy	4.ryy	8d/L	.	8a\L	.	4.ryy	16ccc\LL
.	.	16dd\JJ	.	16dd\JJ	.	.	.	.	.	.	.	.	.	.	16dd\JJ
!	!	!	!	!LO:N:vis=4.	!	!	!	!	!	!	!	!	!	!	!
8F#\	.	4ddT\	.	4ddT\	.	.	.	.	.	8d/	.	8a\	.	.	4ddT\
8A\J	.	.	.	.	.	.	.	.	.	8d/J	.	8a\J	.	.	.
=13	=13	=13	=13	=13	=13	=13	=13	=13	=13	=13	=13	=13	=13	=13	=13
8B\L	.	16gg\LL	.	16gg\LL	.	4.r	.	4.ryy	4.ryy	8g\	.	8b\	.	4.ryy	16gg\LL
.	.	16dd\	.	16dd\	.	.	.	.	.	.	.	.	.	.	16dd\
8c\	.	16ee\	.	16ee\	.	.	.	.	.	8r	.	8r	.	.	16ee\
.	.	16cc\	.	16cc\	.	.	.	.	.	.	.	.	.	.	16cc\
8c\J	.	16a\	.	16a\	.	.	.	.	.	8g\	.	8b\	.	.	16a\
.	.	16g\JJ	.	16g\JJ	.	.	.	.	.	.	.	.	.	.	16g\JJ
!	!	!	!	!	!	!	!	!	!	!	!	!	!	!	!LO:LB:g=original
=14	=14	=14	=14	=14	=14	=14	=14	=14	=14	=14	=14	=14	=14	=14	=14
.	.	8qqg/	.	8qqg/	.	.	.	.	.	.	.	.	.	.	8qqg/
8d\L	.	4f#/	.	4.f#/	.	4.r	.	4.ryy	4.ryy	8d/L	.	8a\L	.	4.ryy	4.f#/
8A\	.	.	.	.	.	.	.	.	.	16d/L	.	16a\L	.	.	.
.	.	.	.	.	.	.	.	.	.	16d/J	.	16a\J	.	.	.
8D\J	.	8r	.	.	.	.	.	.	.	8d/J	.	8a\J	.	.	.
!	!	!LO:LB:g=original	!	!LO:LB:g=original	!	!	!	!	!	!	!	!	!	!	!
=15	=15	=15	=15	=15	=15	=15	=15	=15	=15	=15	=15	=15	=15	=15	=15
!	!	!	!	!	!	!	!	!	!	!	!	!	!	!	!LO:TX:a:t=Solo
8D\L	.	4.r	.	4.r	.	4.r	.	4.ryy	4.ryy	4.r	.	4.r	.	4.ryy	16ff#\LL
.	.	.	.	.	.	.	.	.	.	.	.	.	.	.	16gg\
8d\	.	.	.	.	.	.	.	.	.	.	.	.	.	.	16aa\
.	.	.	.	.	.	.	.	.	.	.	.	.	.	.	16aa\
8D\J	.	.	.	.	.	.	.	.	.	.	.	.	.	.	16aa\
.	.	.	.	.	.	.	.	.	.	.	.	.	.	.	16aa\JJ
=16	=16	=16	=16	=16	=16	=16	=16	=16	=16	=16	=16	=16	=16	=16	=16
!	!	!	!	!	!LO:DY:a:t=pia.	!	!	!	!	!LO:TX:a:t=Solo	!	!LO:TX:a:t=Solo	!	!	!
!	!	!	!LO:DY:a:t=pia.	!LO:TX:t=P:problem=mixed beam	!	!	!	!	!	!	!	!	!	!	!
!	!	!LO:TX:t=P:problem=mixed beam	!	!	!	!	!	!	!	!	!	!	!	!	!
4D\	.	8d/L	p	8d/L	p	4.r	.	4.ryy	4.ryy	16d\LL	.	16a\LL	.	4.ryy	4aa\
.	.	.	.	.	.	.	.	.	.	16g\	.	16b\	.	.	.
.	.	8dd\	.	8dd\	.	.	.	.	.	16a\	.	16cc\	.	.	.
.	.	.	.	.	.	.	.	.	.	16a\	.	16cc\	.	.	.
8r	.	8d/J	.	8d/J	.	.	.	.	.	16a\	.	16cc\	.	.	8r
.	.	.	.	.	.	.	.	.	.	16a\JJ	.	16cc\JJ	.	.	.
!LO:LB:g=original	!	!	!	!	!	!	!	!	!	!	!	!	!	!	!
=17	=17	=17	=17	=17	=17	=17	=17	=17	=17	=17	=17	=17	=17	=17	=17
!LO:TX:t=P:problem=mixed beam	!	!	!	!	!	!	!	!	!	!	!	!	!	!	!
8GG/L	.	4g/	.	4g/	.	4.r	.	4.ryy	4.ryy	4g\	.	4b\	.	4.ryy	16gg\LL
.	.	.	.	.	.	.	.	.	.	.	.	.	.	.	16aa\
8G\	.	.	.	.	.	.	.	.	.	.	.	.	.	.	16bb\
.	.	.	.	.	.	.	.	.	.	.	.	.	.	.	16bb\
8GG/J	.	8r	.	8r	.	.	.	.	.	8r	.	8r	.	.	16bb\
.	.	.	.	.	.	.	.	.	.	.	.	.	.	.	16bb\JJ
!	!	!	!	!	!	!	!	!	!	!LO:LB:g=original	!	!	!	!	!
=18	=18	=18	=18	=18	=18	=18	=18	=18	=18	=18	=18	=18	=18	=18	=18
4GG/	.	8G/L	.	8G/L	.	4.r	.	4.ryy	4.ryy	16g\LL	.	16b\LL	.	4.ryy	4bb\
.	.	.	.	.	.	.	.	.	.	16a\	.	16cc\	.	.	.
.	.	8g/	.	8g/	.	.	.	.	.	16b\	.	16dd\	.	.	.
.	.	.	.	.	.	.	.	.	.	16b\	.	16dd\	.	.	.
8r	.	8G/J	.	8G/J	.	.	.	.	.	16b\	.	16dd\	.	.	8r
.	.	.	.	.	.	.	.	.	.	16b\JJ	.	16dd\JJ	.	.	.
=19	=19	=19	=19	=19	=19	=19	=19	=19	=19	=19	=19	=19	=19	=19	=19
8D\L	.	8d/L	.	8d/L	.	4.r	.	4.ryy	4.ryy	8a\L	.	8cc\L	.	4.ryy	8aa\L
8F#\	.	8f#/	.	8f#/	.	.	.	.	.	8a\	.	8cc\	.	.	8aa\
8G\J	.	8g/J	.	8g/J	.	.	.	.	.	8g\J	.	8b\J	.	.	8gg\J
!	!	!	!	!	!	!	!	!	!	!	!	!LO:LB:g=original	!	!	!
=20	=20	=20	=20	=20	=20	=20	=20	=20	=20	=20	=20	=20	=20	=20	=20
.	.	.	.	.	.	.	.	.	.	.	.	8qqb/	.	.	8qqgg/
8d\L	.	8dd\L	.	8dd\L	.	4.r	.	4.ryy	4.ryy	4d/	.	4a\	.	4.ryy	4ff#\
8D\	.	8d/J	.	8d/J	.	.	.	.	.	.	.	.	.	.	.
!	!	!	!LO:DY:a:t=for&colon;	!	!LO:DY:a:t=for	!	!	!	!	!	!	!	!	!	!
8B\J	.	8dd\	f	8dd/	f	.	.	.	.	8r	.	8r	.	.	8dd\
=21	=21	=21	=21	=21	=21	=21	=21	=21	=21	=21	=21	=21	=21	=21	=21
8c\L	.	16ee\LL	.	16ee\LL	.	4.r	.	4.ryy	4.ryy	8r	.	8r	.	4.ryy	16ee\LL
.	.	16cc\	.	16cc\	.	.	.	.	.	.	.	.	.	.	16cc\
8d\	.	16a\	.	16a\	.	.	.	.	.	8r	.	8r	.	.	16a\
.	.	16aa\	.	16aa\	.	.	.	.	.	.	.	.	.	.	16aa\
8D\J	.	16gg\	.	16gg\	.	.	.	.	.	8a\	.	8cc\	.	.	16gg\
.	.	16ff#\JJ	.	16ff#\JJ	.	.	.	.	.	.	.	.	.	.	16ff#\JJ
=22	=22	=22	=22	=22	=22	=22	=22	=22	=22	=22	=22	=22	=22	=22	=22
.	.	.	.	.	.	.	.	.	.	8qqa/	.	8qqcc/	.	.	.
8G\L	.	(16gg\LL	.	(16gg\LL	.	4.r	.	4.ryy	4.ryy	4g\	.	4b\	.	4.ryy	16gg\LL
.	.	16dd\JJ)	.	16dd\JJ)	.	.	.	.	.	.	.	.	.	.	16dd\JJ
8B\	.	4ddT\	.	4ddT\	.	.	.	.	.	.	.	.	.	.	4ddT\
8G\J	.	.	.	.	.	.	.	.	.	8r	.	8r	.	.	.
=23	=23	=23	=23	=23	=23	=23	=23	=23	=23	=23	=23	=23	=23	=23	=23
8c\L	.	16ee\LL	.	16ee\LL	.	4.r	.	4.ryy	4.ryy	8r	.	8r	.	4.ryy	16ee\LL
.	.	16cc\	.	16cc\	.	.	.	.	.	.	.	.	.	.	16cc\
8d\	.	16a\	.	16a\	.	.	.	.	.	8r	.	8r	.	.	16a\
.	.	16aa\	.	16aa\	.	.	.	.	.	.	.	.	.	.	16aa\
8D\J	.	16gg\	.	16gg\	.	.	.	.	.	8a\	.	8cc\	.	.	16gg\
.	.	16ff#\JJ	.	16ff#\JJ	.	.	.	.	.	.	.	.	.	.	16ff#\JJ
=24	=24	=24	=24	=24	=24	=24	=24	=24	=24	=24	=24	=24	=24	=24	=24
.	.	.	.	.	.	.	.	.	.	8qqa/	.	8qqcc/	.	.	.
8G\L	.	(16gg\LL	.	16gg\LL	.	4.r	.	4.ryy	4.ryy	4g\	.	4b\	.	4.ryy	16gg\LL
.	.	16dd\JJ)	.	16dd\JJ	.	.	.	.	.	.	.	.	.	.	16dd\JJ
8B\	.	4ddT\	.	4ddT\	.	.	.	.	.	.	.	.	.	.	4ddT\
8G\J	.	.	.	.	.	.	.	.	.	8r	.	8r	.	.	.
=25	=25	=25	=25	=25	=25	=25	=25	=25	=25	=25	=25	=25	=25	=25	=25
8c\L	.	16ee\LL	.	16ee\LL	.	4.r	.	4.ryy	4.ryy	8a\L	.	8cc\L	.	4.ryy	16ee\LL
.	.	16cc\	.	16cc\	.	.	.	.	.	.	.	.	.	.	16cc\
8d\	.	16b\	.	16b\	.	.	.	.	.	8g\	.	8b\	.	.	16b\
.	.	16g\	.	16g\	.	.	.	.	.	.	.	.	.	.	16g\
8D\J	.	16f#\	.	16f#\	.	.	.	.	.	16d\L	.	16a\L	.	.	16f#\
.	.	16a\JJ	.	16a\JJ	.	.	.	.	.	16d\JJ	.	16a\JJ	.	.	16a\JJ
=26	=26	=26	=26	=26	=26	=26	=26	=26	=26	=26	=26	=26	=26	=26	=26
!	!	!	!	!	!	!	!	!	!	!	!	!	!	!	!
.	.	8qqa/	.	8qqa/	.	.	.	.	.	.	.	.	.	.	8qqa/
!	!LO:DY:a	!	!	!	!	!	!	!	!	!	!	!	!	!	!
!	!LO:DY:t=pia.	!	!	!	!	!	!	!	!	!	!	!	!	!	!
8G\L	p	4g/	.	4g/	.	4.r	.	4.ryy	4.ryy	4B/	.	4g\	.	4.ryy	4g/
8A\	.	.	.	.	.	.	.	.	.	.	.	.	.	.	.
!	!	!	!LO:DY:a:t=pia.	!	!LO:DY:a:t=pia.	!	!	!	!	!	!	!	!	!	!
8B\J	.	8dd\	p	8dd\	p	.	.	.	.	8r	.	8r	.	.	8r
!	!	!	!	!	!	!	!	!	!	!	!	!	!	!	!LO:LB:g=original
=27	=27	=27	=27	=27	=27	=27	=27	=27	=27	=27	=27	=27	=27	=27	=27
8c\L	.	16ee\LL	.	16ee\LL	.	4.r	.	4.ryy	4.ryy	8r	.	8r	.	4.ryy	4.r
.	.	16cc\	.	16cc\	.	.	.	.	.	.	.	.	.	.	.
8d\	.	16a\	.	16a\	.	.	.	.	.	8r	.	8r	.	.	.
.	.	16aa\	.	16aa\	.	.	.	.	.	.	.	.	.	.	.
!	!	!	!	!	!	!	!	!	!	!	!LO:DY:a	!	!LO:DY:a	!	!
!	!	!	!	!	!	!	!	!	!	!	!LO:DY:t=pia	!	!LO:DY:t=pia.	!	!
8D\J	.	16gg\	.	16gg\	.	.	.	.	.	8a\	p	8cc\	p	.	.
.	.	16ff#\JJ	.	16ff#\JJ	.	.	.	.	.	.	.	.	.	.	.
!	!	!LO:LB:g=original	!	!	!	!	!	!	!	!	!	!	!	!	!
=28	=28	=28	=28	=28	=28	=28	=28	=28	=28	=28	=28	=28	=28	=28	=28
.	.	.	.	.	.	.	.	.	.	8qqa/	.	8qqcc/	.	.	.
8G\L	.	(16gg\LL	.	(16gg\LL	.	4.r	.	4.ryy	4.ryy	4g\	.	4b\	.	4.ryy	4.r
.	.	16dd\JJ)	.	16dd\JJ)	.	.	.	.	.	.	.	.	.	.	.
8B\	.	4ddT\	.	4ddT\	.	.	.	.	.	.	.	.	.	.	.
8G\J	.	.	.	.	.	.	.	.	.	8r	.	8r	.	.	.
!	!	!	!	!LO:LB:g=original	!	!	!	!	!	!	!	!	!	!	!
=29	=29	=29	=29	=29	=29	=29	=29	=29	=29	=29	=29	=29	=29	=29	=29
8c\L	.	16ee\LL	.	16ee\LL	.	4.r	.	4.ryy	4.ryy	8r	.	8r	.	4.ryy	4.r
.	.	16cc\	.	16cc\	.	.	.	.	.	.	.	.	.	.	.
8d\	.	16a\	.	16a\	.	.	.	.	.	8r	.	8r	.	.	.
.	.	16aa\	.	16aa\	.	.	.	.	.	.	.	.	.	.	.
8D\J	.	16gg\	.	16gg\	.	.	.	.	.	8a\	.	8cc\	.	.	.
.	.	16ff#\JJ	.	16ff#\JJ	.	.	.	.	.	.	.	.	.	.	.
=30	=30	=30	=30	=30	=30	=30	=30	=30	=30	=30	=30	=30	=30	=30	=30
.	.	.	.	.	.	.	.	.	.	8qqa/	.	8qqcc/	.	.	.
8G\L	.	(16gg\LL	.	(16gg\LL	.	4.r	.	4.ryy	4.ryy	4g\	.	4b\	.	4.ryy	4.r
.	.	16dd\JJ)	.	16dd\JJ)	.	.	.	.	.	.	.	.	.	.	.
8B\	.	4ddT\	.	4ddT\	.	.	.	.	.	.	.	.	.	.	.
8G\J	.	.	.	.	.	.	.	.	.	8r	.	8r	.	.	.
=31	=31	=31	=31	=31	=31	=31	=31	=31	=31	=31	=31	=31	=31	=31	=31
8C/L	.	16ee\LL	.	16ee\LL	.	4.r	.	4.ryy	4.ryy	8a\L	.	8cc\L	.	4.ryy	4.r
.	.	16cc\	.	16cc\	.	.	.	.	.	.	.	.	.	.	.
8D/	.	16b\	.	16b\	.	.	.	.	.	8g\	.	8b\	.	.	.
.	.	16g\	.	16g\	.	.	.	.	.	.	.	.	.	.	.
8D/J	.	16f#\	.	16f#\	.	.	.	.	.	16d\L	.	16a\L	.	.	.
.	.	16a\JJ	.	16a\JJ	.	.	.	.	.	16d\JJ	.	16a\JJ	.	.	.
=32	=32	=32	=32	=32	=32	=32	=32	=32	=32	=32	=32	=32	=32	=32	=32
!	!	!	!	!LO:TX:t=P:problem=mixed beam	!	!	!	!	!	!	!	!	!	!	!
!	!	!	!LO:DY:a:t=for.	!	!LO:DY:a:t=for	!	!	!	!	!	!	!	!	!	!
4GG/	.	8g/L	f	8g/L	f	4.r	.	4.ryy	4.ryy	4B/	.	4g\	.	4.ryy	8r
.	.	16b/L	.	16dd\L	.	.	.	.	.	.	.	.	.	.	16dd\LL
.	.	16b/	.	16dd\	.	.	.	.	.	.	.	.	.	.	16dd\
8r	.	16b/	.	16dd\	.	.	.	.	.	8r	.	8r	.	.	16dd\
.	.	16b/JJ	.	16dd\JJ	.	.	.	.	.	.	.	.	.	.	16dd\JJ
!LO:LB:g=original	!	!	!	!	!	!	!	!	!	!	!	!	!	!	!
=33	=33	=33	=33	=33	=33	=33	=33	=33	=33	=33	=33	=33	=33	=33	=33
!	!	!	!	!	!	!	!	!	!	!	!	!	!LO:DY:a	!	!
!	!	!	!	!	!	!	!	!	!	!	!	!	!LO:DY:t=for.	!	!
8r	.	8b/L	.	8dd\L	.	4.r	.	4.ryy	4.ryy	8r	.	8r	f	4.ryy	8dd\L
!	!LO:DY:a	!	!	!	!	!	!	!	!	!	!	!	!	!	!
!	!	!	!	!	!	!	!	!	!	!	!LO:DY:a	!	!	!	!
!	!LO:DY:t=for.	!	!	!	!	!	!	!	!	!	!	!	!	!	!
!	!	!	!	!	!	!	!	!	!	!	!LO:DY:t=for	!	!	!	!
16GG/LL	f	16g/L	.	16b\L	.	.	.	.	.	16g\LL	f	16b\LL	.	.	16b\L
16GG/	.	16g/	.	16b\	.	.	.	.	.	16g\	.	16b\	.	.	16b\
16GG/	.	16g/	.	16b\	.	.	.	.	.	16g\	.	16b\	.	.	16b\
16GG/JJ	.	16g/JJ	.	16b\JJ	.	.	.	.	.	16g\JJ	.	16b\JJ	.	.	16b\JJ
=34	=34	=34	=34	=34	=34	=34	=34	=34	=34	=34	=34	=34	=34	=34	=34
!	!	!LO:TX:t=P:problem=tu powinno być signum "podwójna fermata"	!	!	!	!	!	!	!	!LO:TX:t=P:problem=signum "podwójna fermata"	!	!	!	!	!
4GG;;/	.	4g/	.	4b;;\	.	4.r	.	4.ryy	4.ryy	4g;;\	.	4b;;\	.	4.ryy	4b;;\
8r	.	8r	.	8r	.	.	.	.	.	8r	.	8r	.	.	8r
!	!	!	!	!	!	!	!	!	!	!LO:LB:g=original	!	!	!	!	!
=35	=35	=35	=35	=35	=35	=35	=35	=35	=35	=35	=35	=35	=35	=35	=35
!	!LO:DY:a	!	!	!	!	!	!	!	!	!	!	!	!LO:DY:a	!	!LO:TX:a:t=28
!	!LO:DY:t=pia.	!	!	!	!	!	!	!	!	!	!	!	!	!	!
!	!	!	!LO:DY:a:t=pia.	!	!LO:DY:a:t=pia.	!	!	!	!	!	!	!	!LO:DY:t=pia	!	!
8GG/L	p	4.d/	p	4.g/	p	4.G\	Re-	4.ryy	4.ryy	8r	.	8r	p	4.ryy	4.r
8G\	.	.	.	.	.	.	.	.	.	8B/L	.	8g\L	.	.	.
!	!	!	!	!	!	!	!	!	!	!	!LO:DY:a	!	!	!	!
!	!	!	!	!	!	!	!	!	!	!	!LO:DY:t=pia	!	!	!	!
8G\J	.	.	.	.	.	.	.	.	.	8B/J	p	8g\J	.	.	.
=36	=36	=36	=36	=36	=36	=36	=36	=36	=36	=36	=36	=36	=36	=36	=36
8GG/L	.	4.g/	.	4.b\	.	4.B\	.	4.ryy	4.ryy	8r	.	8r	.	4.ryy	4.r
8G\	.	.	.	.	.	.	.	.	.	8g\L	.	8b\L	.	.	.
8G\J	.	.	.	.	.	.	.	.	.	8g\J	.	8b\J	.	.	.
!	!	!	!	!	!	!	!	!	!	!	!	!LO:LB:g=original	!	!	!
=37	=37	=37	=37	=37	=37	=37	=37	=37	=37	=37	=37	=37	=37	=37	=37
8GG/L	.	4.b\	.	4.dd\	.	4.d\	-gi-	4.ryy	4.ryy	8r	.	8r	.	4.ryy	4.r
8G\	.	.	.	.	.	.	.	.	.	8b\L	.	8dd\L	.	.	.
8G\J	.	.	.	.	.	.	.	.	.	8b\J	.	8dd\J	.	.	.
=38	=38	=38	=38	=38	=38	=38	=38	=38	=38	=38	=38	=38	=38	=38	=38
8GG/L	.	4.g/	.	4.b\	.	4.B\	-na	4.ryy	4.ryy	8r	.	8r	.	4.ryy	4.r
8G\	.	.	.	.	.	.	.	.	.	8g\L	.	8b\L	.	.	.
8G\J	.	.	.	.	.	.	.	.	.	8g\J	.	8b\J	.	.	.
=39	=39	=39	=39	=39	=39	=39	=39	=39	=39	=39	=39	=39	=39	=39	=39
8G\L	.	8g/L	.	8g/L	.	8G\L	An-	4.ryy	4.ryy	4.r	.	4.r	.	4.ryy	4.r
8D\	.	8d/	.	8d/	.	8D\J	.	.	.	.	.	.	.	.	.
8C\J	.	8c/J	.	8c/J	.	8C/	-ge-	.	.	.	.	.	.	.	.
=40	=40	=40	=40	=40	=40	=40	=40	=40	=40	=40	=40	=40	=40	=40	=40
16BB/LL	.	16B/LL	.	16B/LL	.	16BB/LL	-lo-	4.ryy	4.ryy	4.r	.	4.r	.	4.ryy	4.r
16AA/J	.	16A/J	.	16A/J	.	16AA/JJ	.	.	.	.	.	.	.	.	.
8GG/J	.	8G/J	.	8G/J	.	8GG/	-rum	.	.	.	.	.	.	.	.
8r	.	8r	.	8r	.	8r	.	.	.	.	.	.	.	.	.
=41	=41	=41	=41	=41	=41	=41	=41	=41	=41	=41	=41	=41	=41	=41	=41
4D\	.	(16a\LL	.	(16dd\LL	.	8D\L	Re-	4.ryy	4.ryy	4.r	.	4.r	.	4.ryy	4.r
.	.	16dd\)	.	16ff#\)	.	.	.	.	.	.	.	.	.	.	.
.	.	(16dd\	.	(16ff#\	.	8F#\	.	.	.	.	.	.	.	.	.
.	.	16ff#\)	.	16aa\)	.	.	.	.	.	.	.	.	.	.	.
8r	.	(16ff#\	.	(16aa\	.	8A\J	.	.	.	.	.	.	.	.	.
.	.	16aa\JJ)	.	16ccc\JJ)	.	.	.	.	.	.	.	.	.	.	.
=42	=42	=42	=42	=42	=42	=42	=42	=42	=42	=42	=42	=42	=42	=42	=42
8D\L	.	(16aa\LL	.	16ccc\LL	.	8c\	-gi-	4.ryy	4.ryy	4.r	.	4.r	.	4.ryy	4.r
.	.	16dd\JJ)	.	16dd\JJ	.	.	.	.	.	.	.	.	.	.	.
8F#\	.	4ddT\	.	4ddT\	.	4D\	-na	.	.	.	.	.	.	.	.
8A\J	.	.	.	.	.	.	.	.	.	.	.	.	.	.	.
!	!	!LO:LB:g=original	!	!	!	!	!	!	!	!	!	!	!	!	!
=43	=43	=43	=43	=43	=43	=43	=43	=43	=43	=43	=43	=43	=43	=43	=43
4D\	.	(16b\LL	.	(16dd\LL	.	8D\	Pa-	4.ryy	4.ryy	4.r	.	4.r	.	4.ryy	4.r
.	.	16dd\)	.	16gg\)	.	.	.	.	.	.	.	.	.	.	.
.	.	(16dd\	.	(16gg\	.	8G\	-tri-	.	.	.	.	.	.	.	.
.	.	16gg\)	.	16bb\)	.	.	.	.	.	.	.	.	.	.	.
8r	.	(16gg\	.	(16bb\	.	8B\	-ar-	.	.	.	.	.	.	.	.
.	.	16bb\JJ)	.	16ddd\JJ)	.	.	.	.	.	.	.	.	.	.	.
!	!	!	!	!LO:LB:g=original	!	!	!	!	!	!	!	!	!	!	!
=44	=44	=44	=44	=44	=44	=44	=44	=44	=44	=44	=44	=44	=44	=44	=44
8D\L	.	(16bb\LL	.	(16ddd\LL	.	8d\	-cha-	4.ryy	4.ryy	4.r	.	4.r	.	4.ryy	4.r
.	.	16dd\JJ)	.	16dd\JJ)	.	.	.	.	.	.	.	.	.	.	.
8G\	.	4ddT\	.	4ddT\	.	4D\	-rum	.	.	.	.	.	.	.	.
8B\J	.	.	.	.	.	.	.	.	.	.	.	.	.	.	.
=45	=45	=45	=45	=45	=45	=45	=45	=45	=45	=45	=45	=45	=45	=45	=45
4D\	.	(16a\LL	.	(16dd\LL	.	8D\	o-	4.ryy	4.ryy	4.r	.	4.r	.	4.ryy	4.r
.	.	16dd\)	.	16ff#\)	.	.	.	.	.	.	.	.	.	.	.
.	.	(16dd\	.	(16ff#\	.	8G\	-ra	.	.	.	.	.	.	.	.
.	.	16ff#\)	.	16aa\)	.	.	.	.	.	.	.	.	.	.	.
8r	.	(16ff#\	.	(16aa\	.	8A\	pro	.	.	.	.	.	.	.	.
.	.	16aa\JJ)	.	16ccc\JJ)	.	.	.	.	.	.	.	.	.	.	.
!	!	!	!	!	!	!LO:LB:g=original	!	!	!	!	!	!	!	!	!
=46	=46	=46	=46	=46	=46	=46	=46	=46	=46	=46	=46	=46	=46	=46	=46
8D\L	.	16aa\LL	.	16ccc\LL	.	8c\	no-	4.ryy	4.ryy	4.r	.	4.r	.	4.ryy	4.r
.	.	16dd\JJ	.	16dd\JJ	.	.	.	.	.	.	.	.	.	.	.
8F#\	.	4ddT\	.	4ddT\	.	4D\	-bis	.	.	.	.	.	.	.	.
8A\J	.	.	.	.	.	.	.	.	.	.	.	.	.	.	.
=47	=47	=47	=47	=47	=47	=47	=47	=47	=47	=47	=47	=47	=47	=47	=47
8G\L	.	8dd\L	.	8bb\L	.	8B\	o-	4.ryy	4.ryy	4.r	.	4.r	.	4.ryy	4.r
8C\	.	8ee\	.	8aa\	.	8A\	-ra	.	.	.	.	.	.	.	.
8C#X\J	.	8ee\J	.	8gg\J	.	8G\	pro	.	.	.	.	.	.	.	.
=48	=48	=48	=48	=48	=48	=48	=48	=48	=48	=48	=48	=48	=48	=48	=48
8D\L	.	16a/LL	.	16ff#\LL	.	16F#\LL	no-	4.ryy	4.ryy	4.r	.	4.r	.	4.ryy	4.r
.	.	16g/J	.	16ee\J	.	16E\JJ	.	.	.	.	.	.	.	.	.
8D\	.	8f#/J	.	8dd\J	.	8D\	-bis	.	.	.	.	.	.	.	.
8E\J	.	8r	.	8r	.	8r	.	.	.	.	.	.	.	.	.
!LO:LB:g=original	!	!	!	!	!	!	!	!	!	!	!	!	!	!	!
=49	=49	=49	=49	=49	=49	=49	=49	=49	=49	=49	=49	=49	=49	=49	=49
8F#\L	.	8d/L	.	8a/L	.	8A\L	Re-	4.ryy	4.ryy	4.r	.	4.r	.	4.ryy	4.r
8F#\	.	8d/	.	8a/	.	8F#\	.	.	.	.	.	.	.	.	.
8F#\J	.	8d/J	.	8a/J	.	8D\J	.	.	.	.	.	.	.	.	.
=50	=50	=50	=50	=50	=50	=50	=50	=50	=50	=50	=50	=50	=50	=50	=50
8G\L	.	8d/L	.	8b\L	.	8B\	-gi-	4.ryy	4.ryy	4.r	.	4.r	.	4.ryy	4.r
8G\	.	8d/	.	8b\	.	4GG/	-na	.	.	.	.	.	.	.	.
8G\J	.	8d/J	.	8b\J	.	.	.	.	.	.	.	.	.	.	.
=51	=51	=51	=51	=51	=51	=51	=51	=51	=51	=51	=51	=51	=51	=51	=51
8G#X\L	.	8e/L	.	8b\L	.	8B\L	Pro-	4.ryy	4.ryy	4.r	.	4.r	.	4.ryy	4.r
8G#\	.	8e/	.	8b\	.	8G#X\J	.	.	.	.	.	.	.	.	.
8G#\J	.	8e/J	.	8b\J	.	8E\	-phe-	.	.	.	.	.	.	.	.
=52	=52	=52	=52	=52	=52	=52	=52	=52	=52	=52	=52	=52	=52	=52	=52
8A\L	.	8e/L	.	8cc#X\L	.	8c#X\	-ta-	4.ryy	4.ryy	4.r	.	4.r	.	4.ryy	4.r
8A\	.	8e/	.	8cc#\	.	4AA/	-rum	.	.	.	.	.	.	.	.
8A\J	.	8e/J	.	8cc#\J	.	.	.	.	.	.	.	.	.	.	.
=53	=53	=53	=53	=53	=53	=53	=53	=53	=53	=53	=53	=53	=53	=53	=53
8AA/L	.	8c#X/L	.	4.g/	.	4.G\	Re-	4.ryy	4.ryy	4.r	.	4.r	.	4.ryy	4.r
8BB/	.	8d/	.	.	.	.	.	.	.	.	.	.	.	.	.
8C#X/J	.	8e/J	.	.	.	.	.	.	.	.	.	.	.	.	.
=54	=54	=54	=54	=54	=54	=54	=54	=54	=54	=54	=54	=54	=54	=54	=54
4D/	.	4A/	.	4f#/	.	8F#\L	-gi-	4.ryy	4.ryy	4.r	.	4.r	.	4.ryy	4.r
.	.	.	.	.	.	8c#X\J	.	.	.	.	.	.	.	.	.
8r	.	8r	.	8r	.	8d\	-na	.	.	.	.	.	.	.	.
=55	=55	=55	=55	=55	=55	=55	=55	=55	=55	=55	=55	=55	=55	=55	=55
8AA/L	.	8c#X/L	.	4.g/	.	8G\	A-	4.ryy	4.ryy	4.r	.	4.r	.	4.ryy	4.r
8BB/	.	8d/	.	.	.	8G\	-po-	.	.	.	.	.	.	.	.
8C#X/J	.	8e/J	.	.	.	8G\	-sto-	.	.	.	.	.	.	.	.
=56	=56	=56	=56	=56	=56	=56	=56	=56	=56	=56	=56	=56	=56	=56	=56
4D\	.	4A/	.	8f#/	.	8F#\L	-lo-	4.ryy	4.ryy	4.r	.	4.r	.	4.ryy	4.r
.	.	.	.	8r	.	8c#X\J	.	.	.	.	.	.	.	.	.
8r	.	8r	.	8g/	.	8d\	-rum	.	.	.	.	.	.	.	.
!	!	!LO:LB:g=original	!	!	!	!LO:LB:g=original	!	!	!	!	!	!	!	!	!
=57	=57	=57||:	=57	=57	=57	=57	=57	=57	=57	=57	=57	=57	=57	=57	=57
!	!	!LO:TX:t=R.	!	!	!	!	!	!	!	!	!	!	!	!	!
8AA/L	.	8e/L	.	8g/L	.	4.e\	O-	4.ryy	4.ryy	4.r	.	4.r	.	4.ryy	4.r
8AA/	.	8e/	.	8g/	.	.	.	.	.	.	.	.	.	.	.
8AA/J	.	8e/J	.	8g/J	.	.	.	.	.	.	.	.	.	.	.
=58	=58	=58:||	=58	=58	=58	=58	=58	=58	=58	=58	=58	=58	=58	=58	=58
8AA/L	.	8e/Lyy	.	8g/L	.	4.G\	-ra	4.ryy	4.ryy	4.r	.	4.r	.	4.ryy	4.r
8AA/	.	8e/yy	.	8g/	.	.	.	.	.	.	.	.	.	.	.
8AA/J	.	8e/Jyy	.	8g/J	.	.	.	.	.	.	.	.	.	.	.
!	!	!	!	!LO:LB:g=original	!	!	!	!	!	!	!	!	!	!	!
=59	=59	=59	=59	=59	=59	=59	=59	=59	=59	=59	=59	=59	=59	=59	=59
8D\L	.	4d/	.	8g/L	.	8F#\	o-	4.ryy	4.ryy	4.r	.	4.r	.	4.ryy	4.r
8E\	.	.	.	8a/	.	8G\	-ra	.	.	.	.	.	.	.	.
8F#\J	.	8r	.	8b/J	.	8A\	pro	.	.	.	.	.	.	.	.
=60	=60	=60	=60	=60	=60	=60	=60	=60	=60	=60	=60	=60	=60	=60	=60
8G\L	.	8d/L	.	8cc#X\L	.	8B\L	no-	4.ryy	4.ryy	4.r	.	4.r	.	4.ryy	4.r
8A\	.	8g/	.	8dd\	.	8c#X\J	.	.	.	.	.	.	.	.	.
8F#\J	.	8f#/J	.	8dd\J	.	8d\	-bis	.	.	.	.	.	.	.	.
=61	=61	=61	=61	=61	=61	=61	=61	=61	=61	=61	=61	=61	=61	=61	=61
8G\	.	8g/	.	8g/	.	8G\	pro	4.ryy	4.ryy	4.r	.	4.r	.	4.ryy	4.r
4A\	.	4a/	.	4a/	.	4AT\	no-	.	.	.	.	.	.	.	.
=62	=62	=62	=62	=62	=62	=62	=62	=62	=62	=62	=62	=62	=62	=62	=62
8D\L	.	4d/	.	4d/	.	4D\	-bis	4.ryy	4.ryy	4.r	.	4.r	.	4.ryy	4.r
!	!LO:DY:a:t=for	!	!	!	!	!	!	!	!	!	!	!	!	!	!
8F#\	f	.	.	.	.	.	.	.	.	.	.	.	.	.	.
8E\J	.	8r	.	8r	.	8r	.	.	.	.	.	.	.	.	.
=63	=63	=63	=63	=63	=63	=63	=63	=63	=63	=63	=63	=63	=63	=63	=63
!	!	!	!	!	!	!	!	!	!	!	!	!	!	!	!LO:TX:a:t=Solo
4D\	.	4.r	.	4.r	.	4.r	.	4.ryy	4.ryy	4.r	.	4.r	.	4.ryy	16ff#\LL
.	.	.	.	.	.	.	.	.	.	.	.	.	.	.	16gg\
.	.	.	.	.	.	.	.	.	.	.	.	.	.	.	16aa\
.	.	.	.	.	.	.	.	.	.	.	.	.	.	.	16aa\
8r	.	.	.	.	.	.	.	.	.	.	.	.	.	.	16aa\
.	.	.	.	.	.	.	.	.	.	.	.	.	.	.	16aa\JJ
!LO:LB:g=original	!	!	!	!	!	!	!	!	!	!	!	!	!	!	!
=64	=64	=64	=64	=64	=64	=64	=64	=64	=64	=64	=64	=64	=64	=64	=64
!	!	!	!LO:DY:a:t=for.	!	!LO:DY:a:t=for.	!	!	!	!	!	!	!	!	!	!
8D\L	.	16dd\LL	f	16ff#\LL	f	4.r	.	4.ryy	4.ryy	4.r	.	4.r	.	4.ryy	4aa\
.	.	16ee\	.	16gg\	.	.	.	.	.	.	.	.	.	.	.
8F#/	.	16ff#\	.	16aa\	.	.	.	.	.	.	.	.	.	.	.
.	.	16ff#\	.	16aa\	.	.	.	.	.	.	.	.	.	.	.
8D\J	.	16ff#\	.	16aa\	.	.	.	.	.	.	.	.	.	.	8r
.	.	16ff#\JJ	.	16aa\JJ	.	.	.	.	.	.	.	.	.	.	.
=65	=65	=65	=65	=65	=65	=65	=65	=65	=65	=65	=65	=65	=65	=65	=65
4AA/	.	4ee\	.	4gg\	.	4.r	.	4.ryy	4.ryy	4.r	.	4.r	.	4.ryy	16ee\LL
.	.	.	.	.	.	.	.	.	.	.	.	.	.	.	16ff#\
.	.	.	.	.	.	.	.	.	.	.	.	.	.	.	16gg\
.	.	.	.	.	.	.	.	.	.	.	.	.	.	.	16gg\
8r	.	8r	.	8r	.	.	.	.	.	.	.	.	.	.	16gg\
.	.	.	.	.	.	.	.	.	.	.	.	.	.	.	16gg\JJ
=66	=66	=66	=66	=66	=66	=66	=66	=66	=66	=66	=66	=66	=66	=66	=66
8AA/L	.	16cc#X\LL	.	16ee\LL	.	4.r	.	4.ryy	4.ryy	4.r	.	4.r	.	4.ryy	4gg\
.	.	16dd\	.	16ff#\	.	.	.	.	.	.	.	.	.	.	.
8C#X/	.	16ee\	.	16gg\	.	.	.	.	.	.	.	.	.	.	.
.	.	16ee\	.	16gg\	.	.	.	.	.	.	.	.	.	.	.
8AA/J	.	16ee\	.	16gg\	.	.	.	.	.	.	.	.	.	.	8r
.	.	16ee\JJ	.	16gg\JJ	.	.	.	.	.	.	.	.	.	.	.
=67	=67	=67	=67	=67	=67	=67	=67	=67	=67	=67	=67	=67	=67	=67	=67
8D/L	.	8dd\L	.	8ff#\L	.	4.r	.	4.ryy	4.ryy	4.r	.	4.r	.	4.ryy	8ff#\L
8C#X/	.	8ee\	.	8gg\	.	.	.	.	.	.	.	.	.	.	8gg\
8D/J	.	8dd\J	.	8ff#\J	.	.	.	.	.	.	.	.	.	.	8ff#\J
=68	=68	=68	=68	=68	=68	=68	=68	=68	=68	=68	=68	=68	=68	=68	=68
!LO:TX:t=P:problem=mixed beam	!	!	!	!	!	!	!	!	!	!	!	!	!	!	!
8A\L	.	8dd\L	.	8ff#t\L	.	4.r	.	4.ryy	4.ryy	4.r	.	4.r	.	4.ryy	8ff#t\L
8AA/	.	8cc#X\	.	8ee\	.	.	.	.	.	.	.	.	.	.	8ee\J
8F#\J	.	8a\J	.	8a\J	.	.	.	.	.	.	.	.	.	.	8a/
=69	=69	=69	=69	=69	=69	=69	=69	=69	=69	=69	=69	=69	=69	=69	=69
!	!	!	!	!	!	!	!	!	!	!	!	!	!	!	!LO:TX:t=P:problem=mixed beam
!	!	!LO:TX:t=P:problem=mixed beam	!	!LO:TX:t=P:problem=mixed beam	!	!	!	!	!	!	!	!	!	!	!
8G\L	.	16b/LL	.	16b/LL	.	4.r	.	4.ryy	4.ryy	8r	.	8r	.	4.ryy	16b/LL
.	.	16g/	.	16g/	.	.	.	.	.	.	.	.	.	.	16g/
!	!	!	!	!	!	!	!	!	!	!	!	!	!LO:DY:a	!	!
!	!	!	!	!	!	!	!	!	!	!	!	!	!LO:DY:t=for	!	!
8A\	.	16e/	.	16e/	.	.	.	.	.	8r	.	8r	f	.	16e/
.	.	16ee\	.	16ee\	.	.	.	.	.	.	.	.	.	.	16ee\
8AA/J	.	16dd\	.	16dd\	.	.	.	.	.	16a\LL	.	16a\LL	.	.	16dd\
.	.	16cc#X\JJ	.	16cc#X\JJ	.	.	.	.	.	16a\JJ	.	16a\JJ	.	.	16cc#X\JJ
=70	=70	=70	=70	=70	=70	=70	=70	=70	=70	=70	=70	=70	=70	=70	=70
8D\L	.	(16dd\LL	.	16dd\LL	.	4.r	.	4.ryy	4.ryy	4d/	.	4a\	.	4.ryy	(16dd\LL
.	.	16a\JJ)	.	16a\JJ	.	.	.	.	.	.	.	.	.	.	16a\JJ)
8F#\	.	4aT/	.	4aT/	.	.	.	.	.	.	.	.	.	.	4aT/
8D\J	.	.	.	.	.	.	.	.	.	8r	.	8r	.	.	.
!	!	!	!	!	!	!	!	!	!	!	!	!	!	!	!LO:LB:g=original
=71	=71	=71	=71	=71	=71	=71	=71	=71	=71	=71	=71	=71	=71	=71	=71
!	!	!	!	!	!	!	!	!	!	!	!	!	!	!	!LO:TX:t=P:problem=mixed beam
!	!	!LO:TX:t=P:problem=mixed beam	!	!LO:TX:t=P:problem=mixed beam	!	!	!	!	!	!	!	!	!	!	!
8G\L	.	16b/LL	.	16b/LL	.	4.r	.	4.ryy	4.ryy	8r	.	8r	.	4.ryy	16b/LL
.	.	16g/	.	16g/	.	.	.	.	.	.	.	.	.	.	16g/
8A\	.	16e/	.	16e/	.	.	.	.	.	8r	.	8r	.	.	16e/
.	.	16ee\	.	16ee\	.	.	.	.	.	.	.	.	.	.	16ee\
8AA/J	.	16dd\	.	16dd\	.	.	.	.	.	16a\LL	.	16a\LL	.	.	16dd\
.	.	16cc#X\JJ	.	16cc#X\JJ	.	.	.	.	.	16a\JJ	.	16a\JJ	.	.	16cc#X\JJ
=72	=72	=72	=72	=72	=72	=72	=72	=72	=72	=72	=72	=72	=72	=72	=72
8D\L	.	16dd\LL	.	16dd\LL	.	4.r	.	4.ryy	4.ryy	4d/	.	4a\	.	4.ryy	(16dd\LL
.	.	16a\JJ	.	16a\JJ	.	.	.	.	.	.	.	.	.	.	16a\JJ)
8F#\	.	4aT/	.	4aT/	.	.	.	.	.	.	.	.	.	.	4aT/
8D\J	.	.	.	.	.	.	.	.	.	8r	.	8r	.	.	.
!	!	!	!	!LO:LB:g=original	!	!	!	!	!	!	!	!	!	!	!
=73	=73	=73	=73	=73	=73	=73	=73	=73	=73	=73	=73	=73	=73	=73	=73
8G\L	.	16b\LL	.	16b\LL	.	4.r	.	4.ryy	4.ryy	8r	.	8r	.	4.ryy	16b\LL
.	.	16gg\	.	16gg\	.	.	.	.	.	.	.	.	.	.	16gg\
8A\	.	16ff#\	.	16ff#\	.	.	.	.	.	8r	.	8r	.	.	16ff#\
.	.	16dd\	.	16dd\	.	.	.	.	.	.	.	.	.	.	16dd\
8AA/J	.	16cc#X\	.	16cc#X\	.	.	.	.	.	16a\LL	.	16a\LL	.	.	16cc#X\
.	.	16ee\JJ	.	16ee\JJ	.	.	.	.	.	16a\JJ	.	16a\JJ	.	.	16ee\JJ
=74	=74	=74	=74	=74	=74	=74	=74	=74	=74	=74	=74	=74	=74	=74	=74
.	.	8qqee/	.	8qqee/	.	.	.	.	.	.	.	.	.	.	8qqee/
!	!LO:DY:a	!	!	!	!	!	!	!	!	!	!	!	!	!	!
!	!LO:DY:t=pia&colon;	!	!	!	!	!	!	!	!	!	!	!	!	!	!
8D\L	p	4dd\	.	4dd\	.	4.r	.	4.ryy	4.ryy	4dd\	.	4a\	.	4.ryy	4dd\
8F#\	.	.	.	.	.	.	.	.	.	.	.	.	.	.	.
!	!	!	!LO:DY:a:t=pia&colon;	!	!LO:DY:a:t=pia.	!	!	!	!	!	!	!	!	!	!
8D\J	.	8a/	p	8a/	p	.	.	.	.	8r	.	8r	.	.	8r
=75	=75	=75	=75	=75	=75	=75	=75	=75	=75	=75	=75	=75	=75	=75	=75
!	!	!LO:TX:t=P:problem=mixed beam	!	!LO:TX:t=P:problem=mixed beam	!	!	!	!	!	!	!	!	!	!	!
8G\L	.	16b/LL	.	16b/LL	.	4.r	.	4.ryy	4.ryy	4.r	.	4.r	.	4.ryy	4.r
.	.	16g/	.	16g/	.	.	.	.	.	.	.	.	.	.	.
8A\	.	16e/	.	16e/	.	.	.	.	.	.	.	.	.	.	.
.	.	16ee\	.	16ee\	.	.	.	.	.	.	.	.	.	.	.
8AA/J	.	16dd\	.	16dd\	.	.	.	.	.	.	.	.	.	.	.
.	.	16cc#X\JJ	.	16cc#X\JJ	.	.	.	.	.	.	.	.	.	.	.
=76	=76	=76	=76	=76	=76	=76	=76	=76	=76	=76	=76	=76	=76	=76	=76
8D\L	.	(16dd\LL	.	(16dd\LL	.	4.r	.	4.ryy	4.ryy	4.r	.	4.r	.	4.ryy	4.r
.	.	16a\JJ)	.	16a\JJ)	.	.	.	.	.	.	.	.	.	.	.
8F#\	.	4a/	.	4aT/	.	.	.	.	.	.	.	.	.	.	.
8D\J	.	.	.	.	.	.	.	.	.	.	.	.	.	.	.
=77	=77	=77	=77	=77	=77	=77	=77	=77	=77	=77	=77	=77	=77	=77	=77
!	!	!LO:TX:t=P:problem=mixed beam	!	!LO:TX:t=P:problem=mixed beam	!	!	!	!	!	!	!	!	!	!	!
8G\L	.	16b/LL	.	16b/LL	.	4.r	.	4.ryy	4.ryy	4.r	.	4.r	.	4.ryy	4.r
.	.	16g/	.	16g/	.	.	.	.	.	.	.	.	.	.	.
8A\	.	16e/	.	16e/	.	.	.	.	.	.	.	.	.	.	.
.	.	16ee\	.	16ee\	.	.	.	.	.	.	.	.	.	.	.
8AA/J	.	16dd\	.	16dd\	.	.	.	.	.	.	.	.	.	.	.
.	.	16cc#X\JJ	.	16cc#X\JJ	.	.	.	.	.	.	.	.	.	.	.
=78	=78	=78	=78	=78	=78	=78	=78	=78	=78	=78	=78	=78	=78	=78	=78
8D\L	.	(16dd\LL	.	(16dd\LL	.	4.r	.	4.ryy	4.ryy	4.r	.	4.r	.	4.ryy	4.r
.	.	16a\JJ)	.	16a\JJ)	.	.	.	.	.	.	.	.	.	.	.
8F#\	.	4a/	.	4aT/	.	.	.	.	.	.	.	.	.	.	.
8D\J	.	.	.	.	.	.	.	.	.	.	.	.	.	.	.
!LO:LB:g=original	!	!	!	!	!	!	!	!	!	!	!	!	!	!	!
=79	=79	=79	=79	=79	=79	=79	=79	=79	=79	=79	=79	=79	=79	=79	=79
8G\L	.	16b\LL	.	16b\LL	.	4.r	.	4.ryy	4.ryy	4.r	.	4.r	.	4.ryy	4.r
.	.	16gg\	.	16gg\	.	.	.	.	.	.	.	.	.	.	.
8A\	.	16ff#\	.	16ff#\	.	.	.	.	.	.	.	.	.	.	.
.	.	16dd\	.	16dd\	.	.	.	.	.	.	.	.	.	.	.
8AA/J	.	16cc#X\	.	16cc#X\	.	.	.	.	.	.	.	.	.	.	.
.	.	16ee\JJ	.	16ee\JJ	.	.	.	.	.	.	.	.	.	.	.
=80	=80	=80	=80	=80	=80	=80	=80	=80	=80	=80	=80	=80	=80	=80	=80
!	!	!	!LO:DY:a:t=for	!	!LO:DY:a:t=for.	!	!	!	!	!	!	!	!	!	!
4D\	.	8dd\L	f	8dd\L	f	4.r	.	4.ryy	4.ryy	4.r	.	4.r	.	4.ryy	8r
.	.	16ff#\L	.	16aa\L	.	.	.	.	.	.	.	.	.	.	16aa\LL
.	.	16ff#\	.	16aa\	.	.	.	.	.	.	.	.	.	.	16aa\
8r	.	16ff#\	.	16aa\	.	.	.	.	.	.	.	.	.	.	16aa\
.	.	16ff#\JJ	.	16aa\JJ	.	.	.	.	.	.	.	.	.	.	16aa\JJ
=81	=81	=81	=81	=81	=81	=81	=81	=81	=81	=81	=81	=81	=81	=81	=81
!	!LO:DY:a	!	!	!	!	!	!	!	!	!	!	!	!	!	!
!	!LO:DY:t=for	!	!	!	!	!	!	!	!	!	!	!	!	!	!
8r	f	8ff#\L	.	8aa\L	.	4.r	.	4.ryy	4.ryy	8r	.	8r	.	4.ryy	8aa\L
16D\LL	.	16dd\L	.	16ff#\L	.	.	.	.	.	16d/LL	.	16a\LL	.	.	16ff#\L
16D\	.	16dd\	.	16ff#\	.	.	.	.	.	16d/	.	16a\	.	.	16ff#\
16D\	.	16dd\	.	16ff#\	.	.	.	.	.	16d/	.	16a\	.	.	16ff#\
16D\JJ	.	16dd\JJ	.	16ff#\JJ	.	.	.	.	.	16d/JJ	.	16a\JJ	.	.	16ff#\JJ
!	!	!LO:LB:g=original	!	!	!	!	!	!	!	!	!	!	!	!	!
=82	=82	=82	=82	=82	=82	=82	=82	=82	=82	=82	=82	=82	=82	=82	=82
4D\	.	4dd\	.	4ff#\	.	4.r	.	4.ryy	4.ryy	4d/	.	4a\	.	4.ryy	4ff#\
8r	.	8r	.	8r	.	.	.	.	.	8r	.	8r	.	.	8r
=83	=83	=83	=83	=83	=83	=83	=83	=83	=83	=83	=83	=83	=83	=83	=83
!	!LO:DY:a	!	!	!	!	!	!	!	!	!	!	!	!	!	!
!	!LO:DY:t=pia.	!	!	!	!	!	!	!	!	!	!	!	!	!	!
!	!	!	!LO:DY:a:t=pia.	!	!LO:DY:a:t=pia&colon;	!	!	!	!	!	!	!	!	!	!
8D\L	p	8f#/L	p	8a/L	p	4.d\	Re-	4.ryy	4.ryy	4.r	.	4.r	.	4.ryy	4.r
8D\	.	8f#/	.	8a/	.	.	.	.	.	.	.	.	.	.	.
8D\J	.	8f#/J	.	8a/J	.	.	.	.	.	.	.	.	.	.	.
=84	=84	=84	=84	=84	=84	=84	=84	=84	=84	=84	=84	=84	=84	=84	=84
8D\L	.	8f#/L	.	8a/L	.	4.A\	.	4.ryy	4.ryy	4.r	.	4.r	.	4.ryy	4.r
8D\	.	8f#/	.	8a/	.	.	.	.	.	.	.	.	.	.	.
8D\J	.	8f#/J	.	8a/J	.	.	.	.	.	.	.	.	.	.	.
=85	=85	=85	=85	=85	=85	=85	=85	=85	=85	=85	=85	=85	=85	=85	=85
8D\L	.	8f#/L	.	8a/L	.	4.F#\	-gi-	4.ryy	4.ryy	4.r	.	4.r	.	4.ryy	4.r
8D\	.	8f#/	.	8a/	.	.	.	.	.	.	.	.	.	.	.
8D\J	.	8f#/J	.	8a/J	.	.	.	.	.	.	.	.	.	.	.
!	!	!	!	!LO:LB:g=original	!	!	!	!	!	!	!	!	!	!	!
=86	=86	=86	=86	=86	=86	=86	=86	=86	=86	=86	=86	=86	=86	=86	=86
8D\L	.	8f#/L	.	8a/L	.	4.D\	-na	4.ryy	4.ryy	4.r	.	4.r	.	4.ryy	4.r
8D\	.	8f#/	.	8a/	.	.	.	.	.	.	.	.	.	.	.
8D\J	.	8f#/J	.	8a/J	.	.	.	.	.	.	.	.	.	.	.
=87	=87	=87	=87	=87	=87	=87	=87	=87	=87	=87	=87	=87	=87	=87	=87
8D\L	.	8a/L	.	8ccn\L	.	4.cn\	Mar-	4.ryy	4.ryy	4.r	.	4.r	.	4.ryy	4.r
8D\	.	8a/	.	8cc\	.	.	.	.	.	.	.	.	.	.	.
8D\J	.	8a/J	.	8cc\J	.	.	.	.	.	.	.	.	.	.	.
=88	=88	=88	=88	=88	=88	=88	=88	=88	=88	=88	=88	=88	=88	=88	=88
8D\L	.	8a/L	.	8cc\L	.	4.A\	.	4.ryy	4.ryy	4.r	.	4.r	.	4.ryy	4.r
8D\	.	8a/	.	8cc\	.	.	.	.	.	.	.	.	.	.	.
8D\J	.	8a/J	.	8cc\J	.	.	.	.	.	.	.	.	.	.	.
!	!	!	!	!	!	!LO:LB:g=original	!	!	!	!	!	!	!	!	!
=89	=89	=89	=89	=89	=89	=89	=89	=89	=89	=89	=89	=89	=89	=89	=89
8D\L	.	8a/L	.	8cc\L	.	4F#\	.	4.ryy	4.ryy	4.r	.	4.r	.	4.ryy	4.r
8D\	.	8a/	.	8cc\	.	.	.	.	.	.	.	.	.	.	.
8D\J	.	8a/J	.	8cc\J	.	8F#\	-ty-	.	.	.	.	.	.	.	.
=90	=90	=90	=90	=90	=90	=90	=90	=90	=90	=90	=90	=90	=90	=90	=90
8D\L	.	8a/L	.	8cc\L	.	4.D\	-rum	4.ryy	4.ryy	4.r	.	4.r	.	4.ryy	4.r
8D\	.	8a/	.	8cc\	.	.	.	.	.	.	.	.	.	.	.
8D\J	.	8a/J	.	8cc\J	.	.	.	.	.	.	.	.	.	.	.
=91	=91	=91	=91	=91	=91	=91	=91	=91	=91	=91	=91	=91	=91	=91	=91
8GG/L	.	8d/L	.	8b/L	.	8B\	O-	4.ryy	4.ryy	4.r	.	4.r	.	4.ryy	4.r
8C/	.	8e/	.	8a/	.	8A\	-ra	.	.	.	.	.	.	.	.
8C#X/J	.	8e/J	.	8g/J	.	8G\	pro	.	.	.	.	.	.	.	.
=92	=92	=92	=92	=92	=92	=92	=92	=92	=92	=92	=92	=92	=92	=92	=92
8D/L	.	4A/	.	16f#/LL	.	16F#\LL	no-	4.ryy	4.ryy	4.r	.	4.r	.	4.ryy	4.r
.	.	.	.	16e/J	.	16E\JJ	.	.	.	.	.	.	.	.	.
16D/L	.	.	.	8d/J	.	8D\	-bis	.	.	.	.	.	.	.	.
16Cn/	.	.	.	.	.	.	.	.	.	.	.	.	.	.	.
16BB/	.	8r	.	8r	.	8r	.	.	.	.	.	.	.	.	.
16AA/JJ	.	.	.	.	.	.	.	.	.	.	.	.	.	.	.
=93	=93	=93	=93	=93	=93	=93	=93	=93	=93	=93	=93	=93	=93	=93	=93
!	!	!	!	!	!	!	!	!	!	!	!	!	!LO:DY:a	!	!
!	!	!	!	!	!	!	!	!	!	!	!	!	!LO:DY:t=pia	!	!
8GG/L	.	4.d/	.	4.g/	.	4.G\	Re-	4.ryy	4.ryy	8r	.	8r	p	4.ryy	4.r
8G\	.	.	.	.	.	.	.	.	.	8B/L	.	8g\L	.	.	.
8G\J	.	.	.	.	.	.	.	.	.	8B/J	.	8g\J	.	.	.
!LO:LB:g=original	!	!	!	!	!	!	!	!	!	!	!	!	!	!	!
=94	=94	=94	=94	=94	=94	=94	=94	=94	=94	=94	=94	=94	=94	=94	=94
8GG/L	.	4.g/	.	4.b\	.	4.B\	.	4.ryy	4.ryy	8r	.	8r	.	4.ryy	4.r
8G\	.	.	.	.	.	.	.	.	.	8g\L	.	8b\L	.	.	.
8G\J	.	.	.	.	.	.	.	.	.	8g\J	.	8b\J	.	.	.
!	!	!	!	!	!	!	!	!	!	!LO:LB:g=original	!	!	!	!	!
=95	=95	=95	=95	=95	=95	=95	=95	=95	=95	=95	=95	=95	=95	=95	=95
8GG/L	.	4.b\	.	4.dd\	.	4.d\	-gi-	4.ryy	4.ryy	8r	.	8r	.	4.ryy	4.r
8G\	.	.	.	.	.	.	.	.	.	8b\L	.	8dd\L	.	.	.
8G\J	.	.	.	.	.	.	.	.	.	8b\J	.	8dd\J	.	.	.
!	!	!	!	!	!	!	!	!	!	!	!	!LO:LB:g=original	!	!	!
=96	=96	=96	=96	=96	=96	=96	=96	=96	=96	=96	=96	=96	=96	=96	=96
8GG/L	.	4.g/	.	4.b\	.	4.B\	-na	4.ryy	4.ryy	8r	.	8r	.	4.ryy	4.r
8G\	.	.	.	.	.	.	.	.	.	8g\L	.	8b\L	.	.	.
8G\J	.	.	.	.	.	.	.	.	.	8g\J	.	8b\J	.	.	.
=97	=97	=97	=97	=97	=97	=97	=97	=97	=97	=97	=97	=97	=97	=97	=97
8G\L	.	8g/L	.	8g/L	.	8G\L	Con-	4.ryy	4.ryy	4.r	.	4.r	.	4.ryy	4.r
8D\	.	8d/	.	8d/	.	8D\J	.	.	.	.	.	.	.	.	.
8C\J	.	8c/J	.	8c/J	.	8C/	-fes-	.	.	.	.	.	.	.	.
=98	=98	=98	=98	=98	=98	=98	=98	=98	=98	=98	=98	=98	=98	=98	=98
16BB/LL	.	16B/LL	.	16B/LL	.	16BB/LL	-so-	4.ryy	4.ryy	4.r	.	4.r	.	4.ryy	4.r
16AA/J	.	16A/J	.	16A/J	.	16AA/JJ	.	.	.	.	.	.	.	.	.
8GG/	.	8G/J	.	8G/J	.	8GG/	-rum	.	.	.	.	.	.	.	.
8AA/J	.	8r	.	8r	.	8r	.	.	.	.	.	.	.	.	.
!	!	!LO:LB:g=original	!	!	!	!	!	!	!	!	!	!	!	!	!
=99	=99	=99	=99	=99	=99	=99	=99	=99	=99	=99	=99	=99	=99	=99	=99
8BB/L	.	8d/L	.	8g/L	.	8G\	Re-	4.ryy	4.ryy	4.r	.	4.r	.	4.ryy	4.r
8BB/	.	8d/	.	8g/	.	8G\	-gi-	.	.	.	.	.	.	.	.
8BB/J	.	8d/J	.	8g/J	.	8G\	-na	.	.	.	.	.	.	.	.
!	!	!	!	!	!	!LO:LB:g=original	!	!	!	!	!	!	!	!	!
=100	=100	=100	=100	=100	=100	=100	=100	=100	=100	=100	=100	=100	=100	=100	=100
4BB/	.	4d/	.	4g/	.	8G\	Re-	4.ryy	4.ryy	4.r	.	4.r	.	4.ryy	4.r
.	.	.	.	.	.	8B\	-gi-	.	.	.	.	.	.	.	.
8r	.	8r	.	8r	.	8d\	-na	.	.	.	.	.	.	.	.
=101	=101	=101	=101	=101	=101	=101	=101	=101	=101	=101	=101	=101	=101	=101	=101
8GG/L	.	8B/L	.	8fn/L	.	4Fn\	Vir-	4.ryy	4.ryy	4.r	.	4.r	.	4.ryy	4.r
8BB/	.	8d/	.	8f/	.	.	.	.	.	.	.	.	.	.	.
8GG/J	.	8B/J	.	8f/J	.	8F\	-gi-	.	.	.	.	.	.	.	.
=102	=102	=102	=102	=102	=102	=102	=102	=102	=102	=102	=102	=102	=102	=102	=102
.	.	.	.	8qqf#/	.	8qqF#/	.	.	.	.	.	.	.	.	.
8C/L	.	4G/	.	4e/	.	4E\	-num	4.ryy	4.ryy	8r	.	8r	.	4.ryy	4.r
8GG/	.	.	.	.	.	.	.	.	.	16g\LL	.	16g\LL	.	.	.
.	.	.	.	.	.	.	.	.	.	16g\J	.	16g\J	.	.	.
8C/J	.	8r	.	8r	.	8r	.	.	.	8g\J	.	8g\J	.	.	.
!	!	!	!	!LO:LB:g=original	!	!	!	!	!	!	!	!	!	!	!
=103	=103	=103	=103	=103	=103	=103	=103	=103	=103	=103	=103	=103	=103	=103	=103
8C#X/L	.	8e/L	.	8a/L	.	4A\	o-	4.ryy	4.ryy	4.r	.	4.r	.	4.ryy	4.r
8C#/	.	8e/	.	8a/	.	.	.	.	.	.	.	.	.	.	.
8C#/J	.	8e/J	.	8a/J	.	8A\	-ra	.	.	.	.	.	.	.	.
=104	=104	=104	=104	=104	=104	=104	=104	=104	=104	=104	=104	=104	=104	=104	=104
!LO:SIC:s=4C#	!	!	!	!	!	!	!	!	!	!	!	!	!	!	!
4C/	.	4e/	.	4a/	.	8A\	o-	4.ryy	4.ryy	4.r	.	4.r	.	4.ryy	4.r
.	.	.	.	.	.	8c#X\	-ra	.	.	.	.	.	.	.	.
8r	.	8r	.	8r	.	8e\	pro	.	.	.	.	.	.	.	.
=105	=105	=105	=105	=105	=105	=105	=105	=105	=105	=105	=105	=105	=105	=105	=105
.	.	.	.	.	.	8qqA/	.	.	.	.	.	.	.	.	.
8AA/L	.	8c#X/L	.	8g/L	.	4.G\	no-	4.ryy	4.ryy	4.r	.	4.r	.	4.ryy	4.r
8C#X/	.	8e/	.	8g/	.	.	.	.	.	.	.	.	.	.	.
8AA/J	.	8c#/J	.	8g/J	.	.	.	.	.	.	.	.	.	.	.
=106	=106	=106	=106	=106	=106	=106	=106	=106	=106	=106	=106	=106	=106	=106	=106
.	.	.	.	8qqg/	.	8qqG/	.	.	.	.	.	.	.	.	.
8D/L	.	4A/	.	4f#X/	.	4F#X\	-bis	4.ryy	4.ryy	8r	.	8r	.	4.ryy	4.r
8AA/	.	.	.	.	.	.	.	.	.	16a\LL	.	16a\LL	.	.	.
.	.	.	.	.	.	.	.	.	.	16a\J	.	16a\J	.	.	.
8D/J	.	8r	.	8r	.	8r	.	.	.	8d\J	.	8a\J	.	.	.
=107	=107	=107	=107	=107	=107	=107	=107	=107	=107	=107	=107	=107	=107	=107	=107
8D\L	.	4.r	.	4.r	.	8D\L	Re-	4.ryy	4.ryy	4.r	.	4.r	.	4.ryy	16ff#\LL
.	.	.	.	.	.	.	.	.	.	.	.	.	.	.	16gg\
8d\	.	.	.	.	.	8F#\	.	.	.	.	.	.	.	.	16aa\
.	.	.	.	.	.	.	.	.	.	.	.	.	.	.	16aa\
8D\J	.	.	.	.	.	8A\J	.	.	.	.	.	.	.	.	16aa\
.	.	.	.	.	.	.	.	.	.	.	.	.	.	.	16aa\JJ
=108	=108	=108	=108	=108	=108	=108	=108	=108	=108	=108	=108	=108	=108	=108	=108
!	!	!	!	!	!	!	!	!	!	!LO:TX:a:t=Solo	!	!	!	!	!
!	!	!LO:TX:t=P:problem=mixed beam	!	!LO:TX:t=P:problem=mixed beam	!	!	!	!	!	!	!	!	!	!	!
4D\	.	8d/L	.	8d/L	.	8cn\L	-gi-	4.ryy	4.ryy	16d\LL	.	16a\LL	.	4.ryy	4aa\
.	.	.	.	.	.	.	.	.	.	16g\	.	16b\	.	.	.
.	.	8dd\	.	8dd\	.	8A\J	.	.	.	16a\	.	16cc\	.	.	.
.	.	.	.	.	.	.	.	.	.	16a\	.	16cc\	.	.	.
8r	.	8d/J	.	8d/J	.	8F#\	-na	.	.	16a\	.	16cc\	.	.	8r
.	.	.	.	.	.	.	.	.	.	16a\JJ	.	16cc\JJ	.	.	.
!LO:LB:g=original	!	!	!	!	!	!	!	!	!	!	!	!	!	!	!
=109	=109	=109	=109	=109	=109	=109	=109	=109	=109	=109	=109	=109	=109	=109	=109
!LO:TX:t=P:problem=mixed beam	!	!	!	!	!	!	!	!	!	!	!	!	!	!	!
8GG/L	.	4g/	.	4g/	.	8D\	San-	4.ryy	4.ryy	4g\	.	4b\	.	4.ryy	16gg\LL
.	.	.	.	.	.	.	.	.	.	.	.	.	.	.	16aa\
8G\	.	.	.	.	.	8G\	-cto-	.	.	.	.	.	.	.	16bb\
.	.	.	.	.	.	.	.	.	.	.	.	.	.	.	16bb\
8GG/J	.	8r	.	8r	.	8B\	-rum	.	.	8r	.	8r	.	.	16bb\
.	.	.	.	.	.	.	.	.	.	.	.	.	.	.	16bb\JJ
=110	=110	=110	=110	=110	=110	=110	=110	=110	=110	=110	=110	=110	=110	=110	=110
4GG/	.	8G/L	.	8G/L	.	8d\	om-	4.ryy	4.ryy	16g\LL	.	16b\LL	.	4.ryy	4bb\
.	.	.	.	.	.	.	.	.	.	16a\	.	16cc\	.	.	.
.	.	8g/	.	8g/	.	8B\	-ni-	.	.	16b\	.	16dd\	.	.	.
.	.	.	.	.	.	.	.	.	.	16b\	.	16dd\	.	.	.
8r	.	8G/J	.	8G/J	.	8G\	-um	.	.	16b\	.	16dd\	.	.	8r
.	.	.	.	.	.	.	.	.	.	16b\JJ	.	16dd\JJ	.	.	.
!	!	!	!	!	!	!LO:LB:g=original	!	!	!	!	!	!	!	!	!LO:LB:g=original
=111	=111	=111	=111	=111	=111	=111	=111	=111	=111	=111	=111	=111	=111	=111	=111
8D/L	.	4d/	.	4d/	.	8D\L	o-	4.ryy	4.ryy	4d/	.	4a\	.	4.ryy	16ff#\LL
.	.	.	.	.	.	.	.	.	.	.	.	.	.	.	16gg\
8d\	.	.	.	.	.	8F#\	.	.	.	.	.	.	.	.	16aa\
.	.	.	.	.	.	.	.	.	.	.	.	.	.	.	16aa\
8D\J	.	8r	.	8r	.	8A\J	.	.	.	8r	.	8r	.	.	16aa\
.	.	.	.	.	.	.	.	.	.	.	.	.	.	.	16aa\JJ
=112	=112	=112	=112	=112	=112	=112	=112	=112	=112	=112	=112	=112	=112	=112	=112
!	!	!LO:TX:t=P:problem=mixed beam	!	!LO:TX:t=P:problem=mixed beam	!	!	!	!	!	!	!	!	!	!	!
4D\	.	8d/L	.	8d/L	.	8c\L	.	4.ryy	4.ryy	16d\LL	.	16a\LL	.	4.ryy	4aa\
.	.	.	.	.	.	.	.	.	.	16g\	.	16b\	.	.	.
.	.	8dd\	.	8dd\	.	8A\J	.	.	.	16a\	.	16cc\	.	.	.
.	.	.	.	.	.	.	.	.	.	16a\	.	16cc\	.	.	.
8r	.	8d/J	.	8d/J	.	8F#\	-ra	.	.	16a\	.	16cc\	.	.	8r
.	.	.	.	.	.	.	.	.	.	16a\JJ	.	16cc\JJ	.	.	.
=113	=113	=113	=113	=113	=113	=113	=113	=113	=113	=113	=113	=113	=113	=113	=113
!LO:TX:t=P:problem=mixed beam	!	!	!	!	!	!	!	!	!	!	!	!	!	!	!
8GG/L	.	4g/	.	4g/	.	8D\L	pro	4.ryy	4.ryy	4g\	.	4b\	.	4.ryy	16gg\LL
.	.	.	.	.	.	.	.	.	.	.	.	.	.	.	16aa\
8G\	.	.	.	.	.	8G\	.	.	.	.	.	.	.	.	16bb\
.	.	.	.	.	.	.	.	.	.	.	.	.	.	.	16bb\
8GG/J	.	8r	.	8r	.	8B\J	.	.	.	8r	.	8r	.	.	16bb\
.	.	.	.	.	.	.	.	.	.	.	.	.	.	.	16bb\JJ
=114	=114	=114	=114	=114	=114	=114	=114	=114	=114	=114	=114	=114	=114	=114	=114
4GG/	.	8G/L	.	8G/L	.	8d\L	no-	4.ryy	4.ryy	16g\LL	.	16b\LL	.	4.ryy	4bb\
.	.	.	.	.	.	.	.	.	.	16a\	.	16cc\	.	.	.
.	.	8g/	.	8g/	.	8B\J	.	.	.	16b\	.	16dd\	.	.	.
.	.	.	.	.	.	.	.	.	.	16b\	.	16dd\	.	.	.
8r	.	8G/J	.	8G/J	.	8G\	-bis	.	.	16b\	.	16dd\	.	.	8r
.	.	.	.	.	.	.	.	.	.	16b\JJ	.	16dd\JJ	.	.	.
=115	=115	=115	=115	=115	=115	=115	=115	=115	=115	=115	=115	=115	=115	=115	=115
8D\L	.	8d/L	.	8d/L	.	8c\	pro	4.ryy	4.ryy	8a\L	.	8cc\L	.	4.ryy	8aa\L
8F#\	.	8f#/	.	8f#/	.	8c\L	no-	.	.	8a\	.	8cc\	.	.	8aa\
8G\J	.	8g/J	.	8g/J	.	8B\J	.	.	.	8g\J	.	8b\J	.	.	8gg\J
!	!	!LO:LB:g=original	!	!	!	!	!	!	!	!	!	!	!	!	!
!	!	!	!	!	!	!	!	!	!	!LO:LB:g=original	!	!	!	!	!
=116	=116	=116	=116	=116	=116	=116	=116	=116	=116	=116	=116	=116	=116	=116	=116
!LO:TX:t=P:problem=mixed beam	!	!	!	!	!	!	!	!	!	!	!	!	!	!	!
.	.	.	.	.	.	8qqB/	.	.	.	.	.	.	.	.	8qqgg/
!	!	!	!	!LO:TX:t=P:problem=mixed beam	!	!	!	!	!	!	!	!	!	!	!
8d\L	.	8dd\L	.	8dd\L	.	4A\	-bis	4.ryy	4.ryy	4d/	.	4a\	.	4.ryy	4ff#\
8D/	.	8d/	.	8d/	.	.	.	.	.	.	.	.	.	.	.
8BB/J	.	8g/J	.	8dd\J	.	8D\	Re-	.	.	8r	.	8r	.	.	8r
!	!	!	!	!	!	!	!	!	!	!	!	!LO:LB:g=original	!	!	!
=117	=117	=117	=117	=117	=117	=117	=117	=117	=117	=117	=117	=117	=117	=117	=117
!	!	!	!	!	!	!	!	!	!	!	!	!	!	!	!LO:TX:a:t=19
8C/L	.	8g/L	.	8ee\L	.	4.E\	-gi-	4.ryy	4.ryy	4.r	.	4.r	.	4.ryy	4.r
8C/	.	8g/	.	8ee\	.	.	.	.	.	.	.	.	.	.	.
8C/J	.	8g/J	.	8ee\J	.	.	.	.	.	.	.	.	.	.	.
=118	=118	=118	=118	=118	=118	=118	=118	=118	=118	=118	=118	=118	=118	=118	=118
8C/L	.	8g/L	.	8ee\L	.	4c\	-na	4.ryy	4.ryy	4.r	.	4.r	.	4.ryy	4.r
8C/	.	8g/	.	8ee\	.	.	.	.	.	.	.	.	.	.	.
8C/J	.	8g/J	.	8ee\J	.	8c\	San-	.	.	.	.	.	.	.	.
=119	=119	=119	=119	=119	=119	=119	=119	=119	=119	=119	=119	=119	=119	=119	=119
8G\L	.	8b\L	.	8dd\L	.	4.D\	-cto-	4.ryy	4.ryy	4.r	.	4.r	.	4.ryy	4.r
8G\	.	8b\	.	8dd\	.	.	.	.	.	.	.	.	.	.	.
8G\J	.	8b\J	.	8dd\J	.	.	.	.	.	.	.	.	.	.	.
=120	=120	=120	=120	=120	=120	=120	=120	=120	=120	=120	=120	=120	=120	=120	=120
8G\L	.	8b\L	.	8dd\L	.	4.B\	-rum	4.ryy	4.ryy	4.r	.	4.r	.	4.ryy	4.r
8G\	.	8b\	.	8dd\	.	.	.	.	.	.	.	.	.	.	.
8G\J	.	8b\J	.	8dd\J	.	.	.	.	.	.	.	.	.	.	.
!	!	!	!	!LO:LB:g=original	!	!	!	!	!	!	!	!	!	!	!
=121	=121	=121	=121	=121	=121	=121	=121	=121	=121	=121	=121	=121	=121	=121	=121
8D\L	.	8a/L	.	8cc\L	.	4.C/	om-	4.ryy	4.ryy	4.r	.	4.r	.	4.ryy	4.r
8D\	.	8a/	.	8cc\	.	.	.	.	.	.	.	.	.	.	.
8D\J	.	8a/J	.	8cc\J	.	.	.	.	.	.	.	.	.	.	.
=122	=122	=122	=122	=122	=122	=122	=122	=122	=122	=122	=122	=122	=122	=122	=122
8D\L	.	8a/L	.	8cc\L	.	8A\L	.	4.ryy	4.ryy	4.r	.	4.r	.	4.ryy	4.r
8D\	.	8a/	.	8cc\	.	8F#\J	.	.	.	.	.	.	.	.	.
8D\J	.	8a/J	.	8cc\J	.	8C/	-ni-	.	.	.	.	.	.	.	.
=123	=123	=123	=123	=123	=123	=123	=123	=123	=123	=123	=123	=123	=123	=123	=123
.	.	8qqa/	.	8qqcc/	.	8qqC/	.	.	.	.	.	.	.	.	.
8GG/L	.	4g/	.	4b\	.	4BB/	-um	4.ryy	4.ryy	4.r	.	4.r	.	4.ryy	4.r
8BB/	.	.	.	.	.	.	.	.	.	.	.	.	.	.	.
8GG/J	.	8b\	.	8dd\	.	[8G\	o-	.	.	.	.	.	.	.	.
!LO:LB:g=original	!	!	!	!	!	!	!	!	!	!	!	!	!	!	!
=124	=124	=124	=124	=124	=124	=124	=124	=124	=124	=124	=124	=124	=124	=124	=124
8C/L	.	8g/	.	16ee\LL	.	8G\]	.	4.ryy	4.ryy	4.r	.	4.r	.	4.ryy	4.r
.	.	.	.	16cc\	.	.	.	.	.	.	.	.	.	.	.
8D/	.	4cc\	.	16a\	.	4c\	.	.	.	.	.	.	.	.	.
.	.	.	.	16aa\	.	.	.	.	.	.	.	.	.	.	.
8DD/J	.	.	.	16gg\	.	.	.	.	.	.	.	.	.	.	.
.	.	.	.	16ff#\JJ	.	.	.	.	.	.	.	.	.	.	.
!	!	!	!	!	!	!LO:LB:g=original	!	!	!	!	!	!	!	!	!
=125	=125	=125	=125	=125	=125	=125	=125	=125	=125	=125	=125	=125	=125	=125	=125
.	.	8qqcc/	.	.	.	8qqc/	.	.	.	.	.	.	.	.	.
8GG/L	.	4b\	.	16gg\LL	.	4B\	-ra	4.ryy	4.ryy	4.r	.	4.r	.	4.ryy	4.r
.	.	.	.	16dd\JJ	.	.	.	.	.	.	.	.	.	.	.
8BB/	.	.	.	4ddT\	.	.	.	.	.	.	.	.	.	.	.
8GG/J	.	8b\	.	.	.	[8G\	o-	.	.	.	.	.	.	.	.
=126	=126	=126	=126	=126	=126	=126	=126	=126	=126	=126	=126	=126	=126	=126	=126
8C/L	.	8g/	.	16ee\LL	.	8G\]	.	4.ryy	4.ryy	4.r	.	4.r	.	4.ryy	4.r
.	.	.	.	16cc\	.	.	.	.	.	.	.	.	.	.	.
8D/	.	4cc\	.	16a\	.	4c\	.	.	.	.	.	.	.	.	.
.	.	.	.	16aa\	.	.	.	.	.	.	.	.	.	.	.
8DD/J	.	.	.	16gg\	.	.	.	.	.	.	.	.	.	.	.
.	.	.	.	16ff#\JJ	.	.	.	.	.	.	.	.	.	.	.
=127	=127	=127	=127	=127	=127	=127	=127	=127	=127	=127	=127	=127	=127	=127	=127
.	.	8qqcc/	.	.	.	8qqc/	.	.	.	.	.	.	.	.	.
8GG/L	.	4b\	.	16gg\LL	.	4B\	-ra	4.ryy	4.ryy	4.r	.	4.r	.	4.ryy	4.r
.	.	.	.	16dd\JJ	.	.	.	.	.	.	.	.	.	.	.
8BB/	.	.	.	4ddT\	.	.	.	.	.	.	.	.	.	.	.
8GG/J	.	8g/	.	.	.	8G\	pro	.	.	.	.	.	.	.	.
=128	=128	=128	=128	=128	=128	=128	=128	=128	=128	=128	=128	=128	=128	=128	=128
8C/L	.	(16g/LL	.	16ee\LL	.	8c\L	no-	4.ryy	4.ryy	4.r	.	4.r	.	4.ryy	4.r
.	.	16e/)	.	16cc\	.	.	.	.	.	.	.	.	.	.	.
8D/	.	(16d/	.	16b\	.	8B\	.	.	.	.	.	.	.	.	.
.	.	16B/)	.	16g\	.	.	.	.	.	.	.	.	.	.	.
8D/J	.	(16A/	.	16f#\	.	8A\J	.	.	.	.	.	.	.	.	.
.	.	16c/JJ)	.	16a\JJ	.	.	.	.	.	.	.	.	.	.	.
=129	=129	=129	=129	=129	=129	=129	=129	=129	=129	=129	=129	=129	=129	=129	=129
.	.	8qqc/	.	8qqa/	.	.	.	.	.	.	.	.	.	.	.
8G\L	.	4B/	.	4g/	.	8G\	-bis	4.ryy	4.ryy	4.r	.	4.r	.	4.ryy	4.r
8B\	.	.	.	.	.	8r	.	.	.	.	.	.	.	.	.
8G\J	.	8b\	.	8dd\	.	[8G\	o-	.	.	.	.	.	.	.	.
!	!	!	!	!LO:LB:g=original	!	!	!	!	!	!	!	!	!	!	!
=130	=130	=130	=130	=130	=130	=130	=130	=130	=130	=130	=130	=130	=130	=130	=130
8c\L	.	8g/	.	16ee\LL	.	8G\]	.	4.ryy	4.ryy	8r	.	8r	.	4.ryy	4.r
.	.	.	.	16cc\	.	.	.	.	.	.	.	.	.	.	.
8d\	.	4cc\	.	16a\	.	4c\	.	.	.	8r	.	8r	.	.	.
.	.	.	.	16aa\	.	.	.	.	.	.	.	.	.	.	.
8D\J	.	.	.	16gg\	.	.	.	.	.	8a\	.	8cc\	.	.	.
.	.	.	.	16ff#\JJ	.	.	.	.	.	.	.	.	.	.	.
!	!	!LO:LB:g=original	!	!	!	!	!	!	!	!	!	!	!	!	!
=131	=131	=131	=131	=131	=131	=131	=131	=131	=131	=131	=131	=131	=131	=131	=131
.	.	8qqcc/	.	.	.	.	.	.	.	8qqa/	.	8qqcc/	.	.	.
8G\L	.	4b\	.	16gg\LL	.	4B\	-ra	4.ryy	4.ryy	4g\	.	4b\	.	4.ryy	4.r
.	.	.	.	16dd\JJ	.	.	.	.	.	.	.	.	.	.	.
8B\	.	.	.	4ddT\	.	.	.	.	.	.	.	.	.	.	.
8G\J	.	8b\	.	.	.	[8G\	o-	.	.	8r	.	8r	.	.	.
=132	=132	=132	=132	=132	=132	=132	=132	=132	=132	=132	=132	=132	=132	=132	=132
8c\L	.	8g/	.	16ee\LL	.	8G\]	.	4.ryy	4.ryy	8r	.	8r	.	4.ryy	4.r
.	.	.	.	16cc\	.	.	.	.	.	.	.	.	.	.	.
8d\	.	4cc\	.	16a\	.	4c\	.	.	.	8r	.	8r	.	.	.
.	.	.	.	16aa\	.	.	.	.	.	.	.	.	.	.	.
8D\J	.	.	.	16gg\	.	.	.	.	.	8a\	.	8cc\	.	.	.
.	.	.	.	16ff#\JJ	.	.	.	.	.	.	.	.	.	.	.
=133	=133	=133	=133	=133	=133	=133	=133	=133	=133	=133	=133	=133	=133	=133	=133
.	.	.	.	.	.	.	.	.	.	.	.	8qqcc/	.	.	.
8G\L	.	8b\	.	16gg\LL	.	8B\	-ra	4.ryy	4.ryy	4g\	.	4b\	.	4.ryy	4.r
.	.	.	.	16dd\JJ	.	.	.	.	.	.	.	.	.	.	.
8B\	.	8r	.	4ddT\	.	8r	.	.	.	.	.	.	.	.	.
8G\J	.	8g/	.	.	.	8G\	pro	.	.	8r	.	8r	.	.	.
=134	=134	=134	=134	=134	=134	=134	=134	=134	=134	=134	=134	=134	=134	=134	=134
8c\L	.	(16g/LL	.	16ee\LL	.	8c\L	no-	4.ryy	4.ryy	4.r	.	4.r	.	4.ryy	4.r
.	.	16e/)	.	16cc\	.	.	.	.	.	.	.	.	.	.	.
8d\	.	(16d/	.	16b\	.	8B\	.	.	.	.	.	.	.	.	.
.	.	16B/)	.	16g\	.	.	.	.	.	.	.	.	.	.	.
8D\J	.	(16A/	.	16f#\	.	8A\J	.	.	.	.	.	.	.	.	.
.	.	16c/JJ)	.	16a\JJ	.	.	.	.	.	.	.	.	.	.	.
=135	=135	=135	=135	=135	=135	=135	=135	=135	=135	=135	=135	=135	=135	=135	=135
!	!	!	!LO:DY:a:t=for	!	!	!	!	!	!	!	!	!	!	!	!
4G\	.	8B/L	f	8g\L	.	4G\	-bis	4.ryy	4.ryy	4.r	.	4.r	.	4.ryy	4.r
.	.	16gg\L	.	16bb\L	.	.	.	.	.	.	.	.	.	.	.
.	.	16gg\	.	16bb\	.	.	.	.	.	.	.	.	.	.	.
8r	.	16gg\	.	16bb\	.	8r	.	.	.	.	.	.	.	.	.
.	.	16gg\JJ	.	16bb\JJ	.	.	.	.	.	.	.	.	.	.	.
=136	=136	=136	=136	=136	=136	=136	=136	=136	=136	=136	=136	=136	=136	=136	=136
!	!	!	!	!	!LO:DY:a:t=for	!	!	!	!	!	!	!	!	!	!
!	!	!	!	!LO:TX:t=P:problem=mixed beam	!	!	!	!	!	!	!	!	!	!	!
8r	.	8gg\L	.	8bb/L	f	8r	.	4.ryy	4.ryy	8r	.	8r	.	4.ryy	8r
8C#X/L	.	16g/L	.	16b\L	.	8r	.	.	.	8g\L	.	8b\L	.	.	16b/LL
.	.	16g/	.	16b\	.	.	.	.	.	.	.	.	.	.	16b/
8C#/J	.	16g/	.	16b\	.	8C#X/	pro	.	.	8g\J	.	8b\J	.	.	16b/
.	.	16g/JJ	.	16b\JJ	.	.	.	.	.	.	.	.	.	.	16b/JJ
=137	=137	=137	=137	=137	=137	=137	=137	=137	=137	=137	=137	=137	=137	=137	=137
4.D;</	.	4.f#;/	.	4.a;/	.	4.D;/	no-	4.ryy	4.ryy	4.d;/	.	4.a;\	.	4.ryy	4.a;/
=138	=138	=138	=138	=138	=138	=138	=138	=138	=138	=138	=138	=138	=138	=138	=138
!LO:TX:a:t=Da capo ad Signum	!	!LO:TX:a:t=Da capo ad Signum	!	!LO:TX:a:t=Da capo ad Signum	!	!	!	!	!	!LO:TX:a:t=Da capo ad Signum 	!	!	!	!	!LO:TX:a:t=Da capo ad Signum "podwójna fermata"
4.ryy	.	4.ryy	.	4.ryy	.	4GG/	-bis.	4.ryy	4.ryy	4.ryy	.	4.ryy	.	4.ryy	4.ryy
.	.	.	.	.	.	8r	.	.	.	.	.	.	.	.	.
=139	=139	=139	=139	=139	=139	=139	=139	=139	=139	=139	=139	=139	=139	=139	=139
!	!	!	!	!	!	!LO:TX:a:t=01	!	!	!	!	!	!	!	!	!
4.ryy	.	4.ryy	.	4.ryy	.	4.r	.	4.ryy	4.ryy	4.ryy	.	4.ryy	.	4.ryy	4.ryy
=140	=140	=140	=140	=140	=140	=140	=140	=140	=140	=140	=140	=140	=140	=140	=140
4.ryy	.	4.ryy	.	4.ryy	.	4.r	.	4.ryy	4.ryy	4.ryy	.	4.ryy	.	4.ryy	4.ryy
=141	=141	=141	=141	=141	=141	=141	=141	=141	=141	=141	=141	=141	=141	=141	=141
4.ryy	.	4.ryy	.	4.ryy	.	4.r	.	4.ryy	4.ryy	4.ryy	.	4.ryy	.	4.ryy	4.ryy
=142	=142	=142	=142	=142	=142	=142	=142	=142	=142	=142	=142	=142	=142	=142	=142
4.ryy	.	4.ryy	.	4.ryy	.	4.r	.	4.ryy	4.ryy	4.ryy	.	4.ryy	.	4.ryy	4.ryy
=143	=143	=143	=143	=143	=143	=143	=143	=143	=143	=143	=143	=143	=143	=143	=143
4.ryy	.	4.ryy	.	4.ryy	.	4.r	.	4.ryy	4.ryy	4.ryy	.	4.ryy	.	4.ryy	4.ryy
=144	=144	=144	=144	=144	=144	=144	=144	=144	=144	=144	=144	=144	=144	=144	=144
4.ryy	.	4.ryy	.	4.ryy	.	4.r	.	4.ryy	4.ryy	4.ryy	.	4.ryy	.	4.ryy	4.ryy
=145	=145	=145	=145	=145	=145	=145	=145	=145	=145	=145	=145	=145	=145	=145	=145
4.ryy	.	4.ryy	.	4.ryy	.	4.r	.	4.ryy	4.ryy	4.ryy	.	4.ryy	.	4.ryy	4.ryy
=146	=146	=146	=146	=146	=146	=146	=146	=146	=146	=146	=146	=146	=146	=146	=146
4.ryy	.	4.ryy	.	4.ryy	.	4.r	.	4.ryy	4.ryy	4.ryy	.	4.ryy	.	4.ryy	4.ryy
=147	=147	=147	=147	=147	=147	=147	=147	=147	=147	=147	=147	=147	=147	=147	=147
4.ryy	.	4.ryy	.	4.ryy	.	4.r	.	4.ryy	4.ryy	4.ryy	.	4.ryy	.	4.ryy	4.ryy
=148	=148	=148	=148	=148	=148	=148	=148	=148	=148	=148	=148	=148	=148	=148	=148
4.ryy	.	4.ryy	.	4.ryy	.	4.r	.	4.ryy	4.ryy	4.ryy	.	4.ryy	.	4.ryy	4.ryy
=149	=149	=149	=149	=149	=149	=149	=149	=149	=149	=149	=149	=149	=149	=149	=149
4.ryy	.	4.ryy	.	4.ryy	.	4.r	.	4.ryy	4.ryy	4.ryy	.	4.ryy	.	4.ryy	4.ryy
=150	=150	=150	=150	=150	=150	=150	=150	=150	=150	=150	=150	=150	=150	=150	=150
4.ryy	.	4.ryy	.	4.ryy	.	4.r	.	4.ryy	4.ryy	4.ryy	.	4.ryy	.	4.ryy	4.ryy
=151	=151	=151	=151	=151	=151	=151	=151	=151	=151	=151	=151	=151	=151	=151	=151
4.ryy	.	4.ryy	.	4.ryy	.	4.r	.	4.ryy	4.ryy	4.ryy	.	4.ryy	.	4.ryy	4.ryy
=152	=152	=152	=152	=152	=152	=152	=152	=152	=152	=152	=152	=152	=152	=152	=152
4.ryy	.	4.ryy	.	4.ryy	.	4.r	.	4.ryy	4.ryy	4.ryy	.	4.ryy	.	4.ryy	4.ryy
=153	=153	=153	=153	=153	=153	=153	=153	=153	=153	=153	=153	=153	=153	=153	=153
4.ryy	.	4.ryy	.	4.ryy	.	4.r	.	4.ryy	4.ryy	4.ryy	.	4.ryy	.	4.ryy	4.ryy
=154	=154	=154	=154	=154	=154	=154	=154	=154	=154	=154	=154	=154	=154	=154	=154
4.ryy	.	4.ryy	.	4.ryy	.	4.r	.	4.ryy	4.ryy	4.ryy	.	4.ryy	.	4.ryy	4.ryy
=155	=155	=155	=155	=155	=155	=155	=155	=155	=155	=155	=155	=155	=155	=155	=155
4.ryy	.	4.ryy	.	4.ryy	.	4.r	.	4.ryy	4.ryy	4.ryy	.	4.ryy	.	4.ryy	4.ryy
=156	=156	=156	=156	=156	=156	=156	=156	=156	=156	=156	=156	=156	=156	=156	=156
4.ryy	.	4.ryy	.	4.ryy	.	4.r	.	4.ryy	4.ryy	4.ryy	.	4.ryy	.	4.ryy	4.ryy
=157	=157	=157	=157	=157	=157	=157	=157	=157	=157	=157	=157	=157	=157	=157	=157
4.ryy	.	4.ryy	.	4.ryy	.	4.r	.	4.ryy	4.ryy	4.ryy	.	4.ryy	.	4.ryy	4.ryy
=158	=158	=158	=158	=158	=158	=158	=158	=158	=158	=158	=158	=158	=158	=158	=158
4.ryy	.	4.ryy	.	4.ryy	.	4.r	.	4.ryy	4.ryy	4.ryy	.	4.ryy	.	4.ryy	4.ryy
=159	=159	=159	=159	=159	=159	=159	=159	=159	=159	=159	=159	=159	=159	=159	=159
4.ryy	.	4.ryy	.	4.ryy	.	4.r	.	4.ryy	4.ryy	4.ryy	.	4.ryy	.	4.ryy	4.ryy
=160	=160	=160	=160	=160	=160	=160	=160	=160	=160	=160	=160	=160	=160	=160	=160
4.ryy	.	4.ryy	.	4.ryy	.	4.r	.	4.ryy	4.ryy	4.ryy	.	4.ryy	.	4.ryy	4.ryy
=161	=161	=161	=161	=161	=161	=161	=161	=161	=161	=161	=161	=161	=161	=161	=161
4.ryy	.	4.ryy	.	4.ryy	.	4.r	.	4.ryy	4.ryy	4.ryy	.	4.ryy	.	4.ryy	4.ryy
=162	=162	=162	=162	=162	=162	=162	=162	=162	=162	=162	=162	=162	=162	=162	=162
4.ryy	.	4.ryy	.	4.ryy	.	4.r	.	4.ryy	4.ryy	4.ryy	.	4.ryy	.	4.ryy	4.ryy
=163	=163	=163	=163	=163	=163	=163	=163	=163	=163	=163	=163	=163	=163	=163	=163
4.ryy	.	4.ryy	.	4.ryy	.	4.r	.	4.ryy	4.ryy	4.ryy	.	4.ryy	.	4.ryy	4.ryy
=164	=164	=164	=164	=164	=164	=164	=164	=164	=164	=164	=164	=164	=164	=164	=164
4.ryy	.	4.ryy	.	4.ryy	.	4.r	.	4.ryy	4.ryy	4.ryy	.	4.ryy	.	4.ryy	4.ryy
=165	=165	=165	=165	=165	=165	=165	=165	=165	=165	=165	=165	=165	=165	=165	=165
4.ryy	.	4.ryy	.	4.ryy	.	4.r	.	4.ryy	4.ryy	4.ryy	.	4.ryy	.	4.ryy	4.ryy
=166	=166	=166	=166	=166	=166	=166	=166	=166	=166	=166	=166	=166	=166	=166	=166
4.ryy	.	4.ryy	.	4.ryy	.	4.r	.	4.ryy	4.ryy	4.ryy	.	4.ryy	.	4.ryy	4.ryy
=167	=167	=167	=167	=167	=167	=167	=167	=167	=167	=167	=167	=167	=167	=167	=167
4.ryy	.	4.ryy	.	4.ryy	.	4.r	.	4.ryy	4.ryy	4.ryy	.	4.ryy	.	4.ryy	4.ryy
=168	=168	=168	=168	=168	=168	=168	=168	=168	=168	=168	=168	=168	=168	=168	=168
4.ryy	.	4.ryy	.	4.ryy	.	4.r	.	4.ryy	4.ryy	4.ryy	.	4.ryy	.	4.ryy	4.ryy
=169	=169	=169	=169	=169	=169	=169	=169	=169	=169	=169	=169	=169	=169	=169	=169
4.ryy	.	4.ryy	.	4.ryy	.	4.r	.	4.ryy	4.ryy	4.ryy	.	4.ryy	.	4.ryy	4.ryy
=170	=170	=170	=170	=170	=170	=170	=170	=170	=170	=170	=170	=170	=170	=170	=170
4.ryy;;	.	4.ryy	.	4.ryy;;	.	4.r;;	.	4.ryy	4.ryy;;	4.ryy;;	.	4.ryy;;	.	4.ryy	4.ryy
==	==	==	==	==	==	==	==	==	==	==	==	==	==	==	==
*-	*-	*-	*-	*-	*-	*-	*-	*-	*-	*-	*-	*-	*-	*-	*-
!!!system-decoration: [(s1,s2)][(s3,s4)][(s5,s6,s7)][(s8,s9)]s10
!!!RDF**kern: > = above
!!!RDF**kern: < = below
!!!ENC: Andrzej Gręziak
!!!END: 2020-12-02
!!!ENC: Jan Barakat
!!!END: 2022-03-07
